
( H:/OneDrive/25-Eagle/projects/ESP32-Machine_A_Glaçons/Carte_Mere_V3-1.cnc )
( 05/02/2020 10:12 )

( Absolute mode )
( Unit: mm. )
( Layer: Bottom )

( X/Y home should be at bottom left corner of the board. )
( Z home should be with the tip just touching the board. )

(==============================)
( START                        )
(==============================)
(MCUSTOCK X-78.990 Y113.700 Z1.000 OTL OX0.500 OY0.500 OZ0.0)
G21
G90
G40
M03
(==============================)

(==============================)
( New tool number: T13         )
(==============================)
(MCUTOOL T13 D0.800 F3 L30 A180)
M06 T13
(==============================)
( Physical tool not changed    )
(==============================)

(==============================)
( Drilling                     )
F80.0
G00 Z1.000
G00 X4.990 Y6.000
G01 Z-1.700
G00 Z1.000
G00 X12.680 Y7.620
G01 Z-1.700
G00 Z1.000
G00 X15.220 Y7.620
G01 Z-1.700
G00 Z1.000
G00 X22.840 Y7.620
G01 Z-1.700
G00 Z1.000
G00 X25.380 Y7.620
G01 Z-1.700
G00 Z1.000
G00 X27.920 Y7.620
G01 Z-1.700
G00 Z1.000
G00 X26.650 Y19.050
G01 Z-1.700
G00 Z1.000
G00 X24.110 Y19.050
G01 Z-1.700
G00 Z1.000
G00 X21.570 Y19.050
G01 Z-1.700
G00 Z1.000
G00 X19.030 Y19.050
G01 Z-1.700
G00 Z1.000
G00 X16.490 Y19.050
G01 Z-1.700
G00 Z1.000
G00 X12.680 Y24.130
G01 Z-1.700
G00 Z1.000
G00 X12.680 Y27.940
G01 Z-1.700
G00 Z1.000
G00 X16.490 Y26.670
G01 Z-1.700
G00 Z1.000
G00 X19.030 Y26.670
G01 Z-1.700
G00 Z1.000
G00 X21.570 Y26.670
G01 Z-1.700
G00 Z1.000
G00 X24.110 Y26.670
G01 Z-1.700
G00 Z1.000
G00 X26.650 Y26.670
G01 Z-1.700
G00 Z1.000
G00 X29.190 Y26.670
G01 Z-1.700
G00 Z1.000
G00 X31.730 Y26.670
G01 Z-1.700
G00 Z1.000
G00 X34.270 Y26.670
G01 Z-1.700
G00 Z1.000
G00 X34.270 Y19.050
G01 Z-1.700
G00 Z1.000
G00 X31.730 Y19.050
G01 Z-1.700
G00 Z1.000
G00 X29.190 Y19.050
G01 Z-1.700
G00 Z1.000
G00 X40.620 Y9.000
G01 Z-1.700
G00 Z1.000
G00 X40.620 Y3.700
G01 Z-1.700
G00 Z1.000
G00 X45.700 Y2.667
G01 Z-1.700
G00 Z1.000
G00 X53.210 Y7.620
G01 Z-1.700
G00 Z1.000
G00 X53.210 Y12.700
G01 Z-1.700
G00 Z1.000
G00 X53.210 Y17.780
G01 Z-1.700
G00 Z1.000
G00 X58.510 Y17.780
G01 Z-1.700
G00 Z1.000
G00 X58.510 Y12.700
G01 Z-1.700
G00 Z1.000
G00 X62.718 Y10.160
G01 Z-1.700
G00 Z1.000
G00 X58.510 Y7.620
G01 Z-1.700
G00 Z1.000
G00 X64.242 Y2.540
G01 Z-1.700
G00 Z1.000
G00 X68.450 Y10.160
G01 Z-1.700
G00 Z1.000
G00 X73.750 Y10.160
G01 Z-1.700
G00 Z1.000
G00 X73.640 Y12.700
G01 Z-1.700
G00 Z1.000
G00 X74.990 Y6.000
G01 Z-1.700
G00 Z1.000
G00 X73.640 Y20.320
G01 Z-1.700
G00 Z1.000
G00 X73.640 Y25.400
G01 Z-1.700
G00 Z1.000
G00 X68.560 Y24.240
G01 Z-1.700
G00 Z1.000
G00 X68.560 Y18.940
G01 Z-1.700
G00 Z1.000
G00 X58.019 Y23.241
G01 Z-1.700
G00 Z1.000
G00 X58.019 Y35.179
G01 Z-1.700
G00 Z1.000
G00 X62.100 Y40.640
G01 Z-1.700
G00 Z1.000
G00 X67.400 Y40.640
G01 Z-1.700
G00 Z1.000
G00 X72.370 Y41.910
G01 Z-1.700
G00 Z1.000
G00 X73.640 Y43.815
G01 Z-1.700
G00 Z1.000
G00 X74.910 Y41.910
G01 Z-1.700
G00 Z1.000
G00 X73.640 Y48.260
G01 Z-1.700
G00 Z1.000
G00 X73.750 Y53.340
G01 Z-1.700
G00 Z1.000
G00 X74.910 Y58.420
G01 Z-1.700
G00 Z1.000
G00 X73.640 Y60.325
G01 Z-1.700
G00 Z1.000
G00 X72.370 Y58.420
G01 Z-1.700
G00 Z1.000
G00 X72.370 Y63.500
G01 Z-1.700
G00 Z1.000
G00 X64.750 Y63.500
G01 Z-1.700
G00 Z1.000
G00 X60.940 Y62.230
G01 Z-1.700
G00 Z1.000
G00 X60.940 Y59.690
G01 Z-1.700
G00 Z1.000
G00 X60.940 Y57.150
G01 Z-1.700
G00 Z1.000
G00 X60.940 Y52.070
G01 Z-1.700
G00 Z1.000
G00 X60.940 Y49.530
G01 Z-1.700
G00 Z1.000
G00 X60.940 Y46.990
G01 Z-1.700
G00 Z1.000
G00 X66.020 Y48.260
G01 Z-1.700
G00 Z1.000
G00 X68.450 Y53.340
G01 Z-1.700
G00 Z1.000
G00 X53.320 Y52.070
G01 Z-1.700
G00 Z1.000
G00 X53.320 Y49.530
G01 Z-1.700
G00 Z1.000
G00 X53.320 Y46.990
G01 Z-1.700
G00 Z1.000
G00 X44.430 Y48.260
G01 Z-1.700
G00 Z1.000
G00 X44.430 Y50.800
G01 Z-1.700
G00 Z1.000
G00 X44.430 Y53.340
G01 Z-1.700
G00 Z1.000
G00 X44.430 Y55.880
G01 Z-1.700
G00 Z1.000
G00 X44.430 Y60.960
G01 Z-1.700
G00 Z1.000
G00 X44.430 Y63.500
G01 Z-1.700
G00 Z1.000
G00 X44.430 Y66.040
G01 Z-1.700
G00 Z1.000
G00 X36.810 Y66.040
G01 Z-1.700
G00 Z1.000
G00 X36.810 Y68.580
G01 Z-1.700
G00 Z1.000
G00 X36.810 Y71.120
G01 Z-1.700
G00 Z1.000
G00 X36.810 Y73.660
G01 Z-1.700
G00 Z1.000
G00 X36.810 Y76.200
G01 Z-1.700
G00 Z1.000
G00 X36.810 Y78.740
G01 Z-1.700
G00 Z1.000
G00 X36.810 Y81.280
G01 Z-1.700
G00 Z1.000
G00 X36.810 Y83.820
G01 Z-1.700
G00 Z1.000
G00 X36.810 Y86.360
G01 Z-1.700
G00 Z1.000
G00 X36.810 Y88.900
G01 Z-1.700
G00 Z1.000
G00 X36.810 Y91.440
G01 Z-1.700
G00 Z1.000
G00 X36.810 Y93.980
G01 Z-1.700
G00 Z1.000
G00 X36.810 Y96.520
G01 Z-1.700
G00 Z1.000
G00 X40.620 Y104.140
G01 Z-1.700
G00 Z1.000
G00 X40.620 Y106.680
G01 Z-1.700
G00 Z1.000
G00 X40.620 Y109.220
G01 Z-1.700
G00 Z1.000
G00 X48.240 Y105.410
G01 Z-1.700
G00 Z1.000
G00 X48.240 Y102.870
G01 Z-1.700
G00 Z1.000
G00 X48.240 Y100.330
G01 Z-1.700
G00 Z1.000
G00 X54.590 Y100.330
G01 Z-1.700
G00 Z1.000
G00 X54.590 Y102.870
G01 Z-1.700
G00 Z1.000
G00 X54.590 Y105.410
G01 Z-1.700
G00 Z1.000
G00 X60.940 Y105.410
G01 Z-1.700
G00 Z1.000
G00 X60.940 Y102.870
G01 Z-1.700
G00 Z1.000
G00 X60.940 Y100.330
G01 Z-1.700
G00 Z1.000
G00 X67.290 Y100.330
G01 Z-1.700
G00 Z1.000
G00 X67.290 Y102.870
G01 Z-1.700
G00 Z1.000
G00 X67.290 Y105.410
G01 Z-1.700
G00 Z1.000
G00 X74.990 Y106.000
G01 Z-1.700
G00 Z1.000
G00 X74.910 Y97.790
G01 Z-1.700
G00 Z1.000
G00 X74.910 Y87.630
G01 Z-1.700
G00 Z1.000
G00 X66.020 Y87.630
G01 Z-1.700
G00 Z1.000
G00 X66.020 Y85.090
G01 Z-1.700
G00 Z1.000
G00 X66.020 Y82.550
G01 Z-1.700
G00 Z1.000
G00 X54.590 Y82.550
G01 Z-1.700
G00 Z1.000
G00 X48.240 Y82.550
G01 Z-1.700
G00 Z1.000
G00 X48.240 Y92.710
G01 Z-1.700
G00 Z1.000
G00 X54.590 Y92.710
G01 Z-1.700
G00 Z1.000
G00 X53.320 Y62.230
G01 Z-1.700
G00 Z1.000
G00 X53.320 Y59.690
G01 Z-1.700
G00 Z1.000
G00 X53.320 Y57.150
G01 Z-1.700
G00 Z1.000
G00 X36.810 Y58.420
G01 Z-1.700
G00 Z1.000
G00 X36.810 Y60.960
G01 Z-1.700
G00 Z1.000
G00 X36.810 Y63.500
G01 Z-1.700
G00 Z1.000
G00 X36.810 Y55.880
G01 Z-1.700
G00 Z1.000
G00 X36.810 Y53.340
G01 Z-1.700
G00 Z1.000
G00 X36.810 Y50.800
G01 Z-1.700
G00 Z1.000
G00 X36.810 Y48.260
G01 Z-1.700
G00 Z1.000
G00 X36.810 Y44.450
G01 Z-1.700
G00 Z1.000
G00 X36.810 Y40.640
G01 Z-1.700
G00 Z1.000
G00 X29.190 Y40.640
G01 Z-1.700
G00 Z1.000
G00 X29.190 Y44.450
G01 Z-1.700
G00 Z1.000
G00 X13.950 Y48.260
G01 Z-1.700
G00 Z1.000
G00 X13.950 Y50.800
G01 Z-1.700
G00 Z1.000
G00 X13.950 Y53.340
G01 Z-1.700
G00 Z1.000
G00 X13.950 Y55.880
G01 Z-1.700
G00 Z1.000
G00 X13.950 Y58.420
G01 Z-1.700
G00 Z1.000
G00 X13.950 Y60.960
G01 Z-1.700
G00 Z1.000
G00 X13.950 Y63.500
G01 Z-1.700
G00 Z1.000
G00 X13.950 Y66.040
G01 Z-1.700
G00 Z1.000
G00 X13.950 Y68.580
G01 Z-1.700
G00 Z1.000
G00 X13.950 Y71.120
G01 Z-1.700
G00 Z1.000
G00 X13.950 Y73.660
G01 Z-1.700
G00 Z1.000
G00 X13.950 Y76.200
G01 Z-1.700
G00 Z1.000
G00 X13.950 Y78.740
G01 Z-1.700
G00 Z1.000
G00 X13.950 Y81.280
G01 Z-1.700
G00 Z1.000
G00 X13.950 Y83.820
G01 Z-1.700
G00 Z1.000
G00 X13.950 Y86.360
G01 Z-1.700
G00 Z1.000
G00 X7.600 Y90.170
G01 Z-1.700
G00 Z1.000
G00 X7.600 Y92.710
G01 Z-1.700
G00 Z1.000
G00 X8.870 Y97.790
G01 Z-1.700
G00 Z1.000
G00 X13.950 Y96.520
G01 Z-1.700
G00 Z1.000
G00 X13.950 Y93.980
G01 Z-1.700
G00 Z1.000
G00 X6.330 Y83.820
G01 Z-1.700
G00 Z1.000
G00 X6.330 Y81.280
G01 Z-1.700
G00 Z1.000
G00 X8.870 Y77.470
G01 Z-1.700
G00 Z1.000
G00 X3.790 Y77.470
G01 Z-1.700
G00 Z1.000
G00 X6.330 Y71.120
G01 Z-1.700
G00 Z1.000
G00 X6.330 Y68.580
G01 Z-1.700
G00 Z1.000
G00 X6.330 Y66.040
G01 Z-1.700
G00 Z1.000
G00 X6.330 Y60.960
G01 Z-1.700
G00 Z1.000
G00 X6.330 Y58.420
G01 Z-1.700
G00 Z1.000
G00 X8.870 Y54.610
G01 Z-1.700
G00 Z1.000
G00 X3.790 Y54.610
G01 Z-1.700
G00 Z1.000
G00 X8.870 Y36.830
G01 Z-1.700
G00 Z1.000
G00 X11.410 Y36.830
G01 Z-1.700
G00 Z1.000
G00 X2.520 Y27.940
G01 Z-1.700
G00 Z1.000
G00 X5.060 Y24.130
G01 Z-1.700
G00 Z1.000
G00 X7.600 Y19.050
G01 Z-1.700
G00 Z1.000
G00 X7.600 Y13.970
G01 Z-1.700
G00 Z1.000
G00 X45.700 Y17.653
G01 Z-1.700
G00 Z1.000
G00 X45.827 Y23.241
G01 Z-1.700
G00 Z1.000
G00 X43.795 Y29.210
G01 Z-1.700
G00 Z1.000
G00 X45.827 Y35.179
G01 Z-1.700
G00 Z1.000
G00 X73.640 Y35.560
G01 Z-1.700
G00 Z1.000
G00 X8.870 Y107.950
G01 Z-1.700
G00 Z1.000
G00 X4.990 Y106.000
G01 Z-1.700
G00 Z1.000

(==============================)
( New tool number: T12         )
(==============================)
(MCUTOOL T12 D0.800 F3 L30 A180)
M06 T12
(==============================)
( Physical tool not changed    )
(==============================)

(==============================)
( Milling signal contours      )
F100.0

G00 Z1.000
G00 X7.632 Y107.437
G01 Z-0.200
G01 X7.632 Y108.463
G01 X8.357 Y109.188
G01 X9.383 Y109.188
G01 X9.713 Y108.858
G01 X32.624 Y108.858
G01 X33.565 Y109.799
G01 X33.565 Y109.799
G01 X33.691 Y109.925
G01 X33.840 Y110.025
G01 X34.005 Y110.093
G01 X34.181 Y110.128
G01 X39.493 Y110.128
G01 X39.493 Y110.128
G01 X39.546 Y110.220
G01 X39.620 Y110.294
G01 X39.712 Y110.347
G01 X39.813 Y110.374
G01 X41.427 Y110.374
G01 X41.528 Y110.347
G01 X41.620 Y110.294
G01 X41.694 Y110.220
G01 X41.747 Y110.128
G01 X41.774 Y110.027
G01 X41.774 Y108.413
G01 X41.747 Y108.312
G01 X41.694 Y108.220
G01 X41.620 Y108.146
G01 X41.528 Y108.093
G01 X41.427 Y108.066
G01 X39.813 Y108.066
G01 X39.712 Y108.093
G01 X39.620 Y108.146
G01 X39.546 Y108.220
G01 X39.493 Y108.312
G01 X39.493 Y108.312
G01 X34.646 Y108.312
G01 X33.908 Y107.574
G01 X33.908 Y101.976
G01 X34.646 Y101.238
G01 X39.439 Y101.238
G01 X39.615 Y101.203
G01 X39.780 Y101.135
G01 X39.929 Y101.035
G01 X47.346 Y93.618
G01 X47.397 Y93.618
G01 X47.727 Y93.948
G01 X48.753 Y93.948
G01 X48.956 Y93.745
G01 X53.874 Y93.745
G01 X54.077 Y93.948
G01 X55.103 Y93.948
G01 X55.828 Y93.223
G01 X55.828 Y92.197
G01 X55.103 Y91.472
G01 X54.077 Y91.472
G01 X53.874 Y91.675
G01 X48.956 Y91.675
G01 X48.753 Y91.472
G01 X47.727 Y91.472
G01 X47.397 Y91.802
G01 X46.881 Y91.802
G01 X46.705 Y91.837
G01 X46.540 Y91.905
G01 X46.391 Y92.005
G01 X46.265 Y92.131
G01 X38.974 Y99.422
G01 X34.181 Y99.422
G01 X34.005 Y99.457
G01 X33.840 Y99.525
G01 X33.691 Y99.625
G01 X32.421 Y100.895
G01 X32.421 Y100.895
G01 X32.295 Y101.021
G01 X32.195 Y101.170
G01 X32.127 Y101.335
G01 X32.092 Y101.511
G01 X32.092 Y107.042
G01 X23.748 Y107.042
G01 X23.748 Y87.541
G01 X23.713 Y87.365
G01 X23.645 Y87.200
G01 X23.545 Y87.051
G01 X19.609 Y83.115
G01 X19.460 Y83.015
G01 X19.295 Y82.947
G01 X19.119 Y82.912
G01 X15.631 Y82.912
G01 X15.595 Y82.876
G01 X15.437 Y82.761
G01 X15.264 Y82.673
G01 X15.078 Y82.612
G01 X14.886 Y82.582
G01 X13.014 Y82.582
G01 X12.822 Y82.612
G01 X12.636 Y82.673
G01 X12.463 Y82.761
G01 X12.430 Y82.785
G01 X11.048 Y82.785
G01 X11.048 Y72.301
G01 X11.013 Y72.125
G01 X10.945 Y71.960
G01 X10.845 Y71.811
G01 X9.575 Y70.541
G01 X9.449 Y70.415
G01 X9.300 Y70.315
G01 X9.135 Y70.247
G01 X8.959 Y70.212
G01 X7.819 Y70.212
G01 X7.701 Y70.126
G01 X7.538 Y70.043
G01 X7.364 Y69.987
G01 X7.183 Y69.958
G01 X5.477 Y69.958
G01 X5.296 Y69.987
G01 X5.122 Y70.043
G01 X4.959 Y70.126
G01 X4.811 Y70.234
G01 X4.682 Y70.363
G01 X4.574 Y70.511
G01 X4.491 Y70.674
G01 X4.435 Y70.848
G01 X4.406 Y71.029
G01 X4.406 Y71.211
G01 X4.435 Y71.392
G01 X4.491 Y71.566
G01 X4.574 Y71.729
G01 X4.682 Y71.877
G01 X4.811 Y72.006
G01 X4.959 Y72.114
G01 X5.122 Y72.197
G01 X5.296 Y72.253
G01 X5.477 Y72.282
G01 X7.183 Y72.282
G01 X7.364 Y72.253
G01 X7.538 Y72.197
G01 X7.701 Y72.114
G01 X7.819 Y72.028
G01 X8.494 Y72.028
G01 X9.232 Y72.766
G01 X9.232 Y76.232
G01 X8.357 Y76.232
G01 X7.632 Y76.957
G01 X7.632 Y77.983
G01 X8.357 Y78.708
G01 X9.232 Y78.708
G01 X9.232 Y82.785
G01 X7.046 Y82.785
G01 X6.843 Y82.582
G01 X5.817 Y82.582
G01 X5.092 Y83.307
G01 X5.092 Y84.333
G01 X5.817 Y85.058
G01 X6.843 Y85.058
G01 X7.046 Y84.855
G01 X12.430 Y84.855
G01 X12.463 Y84.879
G01 X12.636 Y84.967
G01 X12.822 Y85.028
G01 X13.014 Y85.058
G01 X14.886 Y85.058
G01 X15.078 Y85.028
G01 X15.264 Y84.967
G01 X15.437 Y84.879
G01 X15.595 Y84.764
G01 X15.631 Y84.728
G01 X18.654 Y84.728
G01 X21.932 Y88.006
G01 X21.932 Y107.042
G01 X9.713 Y107.042
G01 X9.383 Y106.712
G01 X8.357 Y106.712
G01 X7.632 Y107.437
G00 Z1.000
G00 X6.664 Y93.948
G01 Z-0.200
G01 X6.692 Y93.948
G01 X6.692 Y96.609
G01 X6.727 Y96.785
G01 X6.795 Y96.950
G01 X6.895 Y97.099
G01 X7.021 Y97.225
G01 X7.632 Y97.836
G01 X7.632 Y98.303
G01 X8.357 Y99.028
G01 X9.383 Y99.028
G01 X10.108 Y98.303
G01 X10.108 Y97.277
G01 X9.383 Y96.552
G01 X8.916 Y96.552
G01 X8.508 Y96.144
G01 X8.508 Y93.948
G01 X8.536 Y93.948
G01 X8.728 Y93.918
G01 X8.914 Y93.857
G01 X9.087 Y93.769
G01 X9.245 Y93.654
G01 X9.383 Y93.517
G01 X9.497 Y93.359
G01 X9.586 Y93.185
G01 X9.646 Y93.000
G01 X9.676 Y92.807
G01 X9.676 Y92.613
G01 X9.646 Y92.420
G01 X9.586 Y92.235
G01 X9.497 Y92.061
G01 X9.383 Y91.903
G01 X9.245 Y91.766
G01 X9.087 Y91.651
G01 X8.914 Y91.563
G01 X8.728 Y91.502
G01 X8.536 Y91.472
G01 X6.664 Y91.472
G01 X6.472 Y91.502
G01 X6.286 Y91.563
G01 X6.113 Y91.651
G01 X5.955 Y91.766
G01 X5.817 Y91.903
G01 X5.703 Y92.061
G01 X5.614 Y92.235
G01 X5.554 Y92.420
G01 X5.524 Y92.613
G01 X5.524 Y92.807
G01 X5.554 Y93.000
G01 X5.614 Y93.185
G01 X5.703 Y93.359
G01 X5.817 Y93.517
G01 X5.955 Y93.654
G01 X6.113 Y93.769
G01 X6.286 Y93.857
G01 X6.472 Y93.918
G01 X6.664 Y93.948
G00 Z1.000
G00 X14.886 Y92.742
G01 Z-0.200
G01 X13.014 Y92.742
G01 X12.822 Y92.772
G01 X12.636 Y92.833
G01 X12.463 Y92.921
G01 X12.305 Y93.036
G01 X12.167 Y93.173
G01 X12.053 Y93.331
G01 X11.964 Y93.505
G01 X11.904 Y93.690
G01 X11.874 Y93.883
G01 X11.874 Y94.077
G01 X11.904 Y94.270
G01 X11.964 Y94.455
G01 X12.053 Y94.629
G01 X12.167 Y94.787
G01 X12.305 Y94.924
G01 X12.463 Y95.039
G01 X12.636 Y95.127
G01 X12.822 Y95.188
G01 X13.014 Y95.218
G01 X14.886 Y95.218
G01 X15.078 Y95.188
G01 X15.264 Y95.127
G01 X15.437 Y95.039
G01 X15.595 Y94.924
G01 X15.733 Y94.787
G01 X15.847 Y94.629
G01 X15.936 Y94.455
G01 X15.996 Y94.270
G01 X16.026 Y94.077
G01 X16.026 Y93.883
G01 X15.996 Y93.690
G01 X15.936 Y93.505
G01 X15.847 Y93.331
G01 X15.733 Y93.173
G01 X15.595 Y93.036
G01 X15.437 Y92.921
G01 X15.264 Y92.833
G01 X15.078 Y92.772
G01 X14.886 Y92.742
G00 Z1.000
G00 X14.886 Y95.282
G01 Z-0.200
G01 X13.014 Y95.282
G01 X12.822 Y95.312
G01 X12.636 Y95.373
G01 X12.463 Y95.461
G01 X12.305 Y95.576
G01 X12.167 Y95.713
G01 X12.053 Y95.871
G01 X11.964 Y96.045
G01 X11.904 Y96.230
G01 X11.874 Y96.423
G01 X11.874 Y96.617
G01 X11.904 Y96.810
G01 X11.964 Y96.995
G01 X12.053 Y97.169
G01 X12.167 Y97.327
G01 X12.305 Y97.464
G01 X12.463 Y97.579
G01 X12.636 Y97.667
G01 X12.822 Y97.728
G01 X13.014 Y97.758
G01 X14.886 Y97.758
G01 X15.078 Y97.728
G01 X15.264 Y97.667
G01 X15.437 Y97.579
G01 X15.595 Y97.464
G01 X15.733 Y97.327
G01 X15.847 Y97.169
G01 X15.936 Y96.995
G01 X15.996 Y96.810
G01 X16.026 Y96.617
G01 X16.026 Y96.423
G01 X15.996 Y96.230
G01 X15.936 Y96.045
G01 X15.847 Y95.871
G01 X15.733 Y95.713
G01 X15.595 Y95.576
G01 X15.437 Y95.461
G01 X15.264 Y95.373
G01 X15.078 Y95.312
G01 X14.886 Y95.282
G00 Z1.000
G00 X14.886 Y85.122
G01 Z-0.200
G01 X13.014 Y85.122
G01 X12.822 Y85.152
G01 X12.636 Y85.213
G01 X12.463 Y85.301
G01 X12.305 Y85.416
G01 X12.167 Y85.553
G01 X12.053 Y85.711
G01 X11.964 Y85.885
G01 X11.904 Y86.070
G01 X11.874 Y86.263
G01 X11.874 Y86.457
G01 X11.904 Y86.650
G01 X11.964 Y86.835
G01 X12.053 Y87.009
G01 X12.167 Y87.167
G01 X12.305 Y87.304
G01 X12.463 Y87.419
G01 X12.636 Y87.507
G01 X12.822 Y87.568
G01 X13.014 Y87.598
G01 X14.886 Y87.598
G01 X15.078 Y87.568
G01 X15.264 Y87.507
G01 X15.437 Y87.419
G01 X15.595 Y87.304
G01 X15.733 Y87.167
G01 X15.847 Y87.009
G01 X15.936 Y86.835
G01 X15.996 Y86.650
G01 X16.026 Y86.457
G01 X16.026 Y86.263
G01 X15.996 Y86.070
G01 X15.936 Y85.885
G01 X15.847 Y85.711
G01 X15.733 Y85.553
G01 X15.595 Y85.416
G01 X15.437 Y85.301
G01 X15.264 Y85.213
G01 X15.078 Y85.152
G01 X14.886 Y85.122
G00 Z1.000
G00 X14.886 Y80.042
G01 Z-0.200
G01 X13.014 Y80.042
G01 X12.822 Y80.072
G01 X12.636 Y80.133
G01 X12.463 Y80.221
G01 X12.305 Y80.336
G01 X12.167 Y80.473
G01 X12.053 Y80.631
G01 X11.964 Y80.805
G01 X11.904 Y80.990
G01 X11.874 Y81.183
G01 X11.874 Y81.377
G01 X11.904 Y81.570
G01 X11.964 Y81.755
G01 X12.053 Y81.929
G01 X12.167 Y82.087
G01 X12.305 Y82.224
G01 X12.463 Y82.339
G01 X12.636 Y82.427
G01 X12.822 Y82.488
G01 X13.014 Y82.518
G01 X14.886 Y82.518
G01 X15.078 Y82.488
G01 X15.264 Y82.427
G01 X15.437 Y82.339
G01 X15.595 Y82.224
G01 X15.733 Y82.087
G01 X15.847 Y81.929
G01 X15.936 Y81.755
G01 X15.996 Y81.570
G01 X16.026 Y81.377
G01 X16.026 Y81.183
G01 X15.996 Y80.990
G01 X15.936 Y80.805
G01 X15.847 Y80.631
G01 X15.733 Y80.473
G01 X15.595 Y80.336
G01 X15.437 Y80.221
G01 X15.264 Y80.133
G01 X15.078 Y80.072
G01 X14.886 Y80.042
G00 Z1.000
G00 X14.886 Y77.502
G01 Z-0.200
G01 X13.014 Y77.502
G01 X12.822 Y77.532
G01 X12.636 Y77.593
G01 X12.463 Y77.681
G01 X12.305 Y77.796
G01 X12.167 Y77.933
G01 X12.053 Y78.091
G01 X11.964 Y78.265
G01 X11.904 Y78.450
G01 X11.874 Y78.643
G01 X11.874 Y78.837
G01 X11.904 Y79.030
G01 X11.964 Y79.215
G01 X12.053 Y79.389
G01 X12.167 Y79.547
G01 X12.305 Y79.684
G01 X12.463 Y79.799
G01 X12.636 Y79.887
G01 X12.822 Y79.948
G01 X13.014 Y79.978
G01 X14.886 Y79.978
G01 X15.078 Y79.948
G01 X15.264 Y79.887
G01 X15.437 Y79.799
G01 X15.595 Y79.684
G01 X15.733 Y79.547
G01 X15.847 Y79.389
G01 X15.936 Y79.215
G01 X15.996 Y79.030
G01 X16.026 Y78.837
G01 X16.026 Y78.643
G01 X15.996 Y78.450
G01 X15.936 Y78.265
G01 X15.847 Y78.091
G01 X15.733 Y77.933
G01 X15.595 Y77.796
G01 X15.437 Y77.681
G01 X15.264 Y77.593
G01 X15.078 Y77.532
G01 X14.886 Y77.502
G00 Z1.000
G00 X14.886 Y74.962
G01 Z-0.200
G01 X13.014 Y74.962
G01 X12.822 Y74.992
G01 X12.636 Y75.053
G01 X12.463 Y75.141
G01 X12.305 Y75.256
G01 X12.167 Y75.393
G01 X12.053 Y75.551
G01 X11.964 Y75.725
G01 X11.904 Y75.910
G01 X11.874 Y76.103
G01 X11.874 Y76.297
G01 X11.904 Y76.490
G01 X11.964 Y76.675
G01 X12.053 Y76.849
G01 X12.167 Y77.007
G01 X12.305 Y77.144
G01 X12.463 Y77.259
G01 X12.636 Y77.347
G01 X12.822 Y77.408
G01 X13.014 Y77.438
G01 X14.886 Y77.438
G01 X15.078 Y77.408
G01 X15.264 Y77.347
G01 X15.437 Y77.259
G01 X15.595 Y77.144
G01 X15.631 Y77.108
G01 X26.739 Y77.108
G01 X26.915 Y77.073
G01 X27.080 Y77.005
G01 X27.229 Y76.905
G01 X31.165 Y72.969
G01 X31.265 Y72.820
G01 X31.333 Y72.655
G01 X31.368 Y72.479
G01 X31.368 Y45.631
G01 X31.333 Y45.455
G01 X31.265 Y45.290
G01 X31.165 Y45.141
G01 X30.428 Y44.404
G01 X30.428 Y43.937
G01 X29.703 Y43.212
G01 X28.677 Y43.212
G01 X27.952 Y43.937
G01 X27.952 Y44.963
G01 X28.677 Y45.688
G01 X29.144 Y45.688
G01 X29.552 Y46.096
G01 X29.552 Y72.014
G01 X26.274 Y75.292
G01 X15.631 Y75.292
G01 X15.595 Y75.256
G01 X15.437 Y75.141
G01 X15.264 Y75.053
G01 X15.078 Y74.992
G01 X14.886 Y74.962
G00 Z1.000
G00 X14.886 Y72.422
G01 Z-0.200
G01 X13.014 Y72.422
G01 X12.822 Y72.452
G01 X12.636 Y72.513
G01 X12.463 Y72.601
G01 X12.305 Y72.716
G01 X12.167 Y72.853
G01 X12.053 Y73.011
G01 X11.964 Y73.185
G01 X11.904 Y73.370
G01 X11.874 Y73.563
G01 X11.874 Y73.757
G01 X11.904 Y73.950
G01 X11.964 Y74.135
G01 X12.053 Y74.309
G01 X12.167 Y74.467
G01 X12.305 Y74.604
G01 X12.463 Y74.719
G01 X12.636 Y74.807
G01 X12.822 Y74.868
G01 X13.014 Y74.898
G01 X14.886 Y74.898
G01 X15.078 Y74.868
G01 X15.264 Y74.807
G01 X15.437 Y74.719
G01 X15.595 Y74.604
G01 X15.631 Y74.568
G01 X25.469 Y74.568
G01 X25.645 Y74.533
G01 X25.810 Y74.465
G01 X25.959 Y74.365
G01 X28.499 Y71.825
G01 X28.499 Y71.825
G01 X28.625 Y71.699
G01 X28.725 Y71.550
G01 X28.793 Y71.385
G01 X28.828 Y71.209
G01 X28.828 Y46.901
G01 X28.793 Y46.725
G01 X28.725 Y46.560
G01 X28.625 Y46.411
G01 X28.499 Y46.285
G01 X28.499 Y46.285
G01 X27.558 Y45.344
G01 X27.558 Y43.556
G01 X29.236 Y41.878
G01 X29.703 Y41.878
G01 X30.428 Y41.153
G01 X30.428 Y40.127
G01 X29.703 Y39.402
G01 X28.677 Y39.402
G01 X27.952 Y40.127
G01 X27.952 Y40.594
G01 X25.945 Y42.601
G01 X25.845 Y42.750
G01 X25.777 Y42.915
G01 X25.742 Y43.091
G01 X25.742 Y45.809
G01 X25.777 Y45.985
G01 X25.845 Y46.150
G01 X25.945 Y46.299
G01 X26.071 Y46.425
G01 X27.012 Y47.366
G01 X27.012 Y70.744
G01 X25.004 Y72.752
G01 X15.631 Y72.752
G01 X15.595 Y72.716
G01 X15.437 Y72.601
G01 X15.264 Y72.513
G01 X15.078 Y72.452
G01 X14.886 Y72.422
G00 Z1.000
G00 X14.886 Y69.882
G01 Z-0.200
G01 X13.014 Y69.882
G01 X12.822 Y69.912
G01 X12.636 Y69.973
G01 X12.463 Y70.061
G01 X12.305 Y70.176
G01 X12.167 Y70.313
G01 X12.053 Y70.471
G01 X11.964 Y70.645
G01 X11.904 Y70.830
G01 X11.874 Y71.023
G01 X11.874 Y71.217
G01 X11.904 Y71.410
G01 X11.964 Y71.595
G01 X12.053 Y71.769
G01 X12.167 Y71.927
G01 X12.305 Y72.064
G01 X12.463 Y72.179
G01 X12.636 Y72.267
G01 X12.822 Y72.328
G01 X13.014 Y72.358
G01 X14.886 Y72.358
G01 X15.078 Y72.328
G01 X15.264 Y72.267
G01 X15.437 Y72.179
G01 X15.595 Y72.064
G01 X15.631 Y72.028
G01 X22.929 Y72.028
G01 X23.105 Y71.993
G01 X23.270 Y71.925
G01 X23.419 Y71.825
G01 X24.689 Y70.555
G01 X24.689 Y70.555
G01 X24.815 Y70.429
G01 X24.915 Y70.280
G01 X24.983 Y70.115
G01 X25.018 Y69.939
G01 X25.018 Y34.666
G01 X27.026 Y32.658
G01 X29.279 Y32.658
G01 X29.455 Y32.623
G01 X29.620 Y32.555
G01 X29.769 Y32.455
G01 X32.309 Y29.915
G01 X32.309 Y29.915
G01 X32.435 Y29.789
G01 X32.535 Y29.640
G01 X32.603 Y29.475
G01 X32.638 Y29.299
G01 X32.638 Y27.884
G01 X32.713 Y27.737
G01 X32.764 Y27.579
G01 X32.790 Y27.414
G01 X32.790 Y25.926
G01 X32.764 Y25.761
G01 X32.713 Y25.603
G01 X32.637 Y25.454
G01 X32.539 Y25.319
G01 X32.421 Y25.201
G01 X32.286 Y25.103
G01 X32.137 Y25.027
G01 X31.978 Y24.975
G01 X31.813 Y24.949
G01 X31.647 Y24.949
G01 X31.482 Y24.975
G01 X31.323 Y25.027
G01 X31.174 Y25.103
G01 X31.039 Y25.201
G01 X30.921 Y25.319
G01 X30.823 Y25.454
G01 X30.747 Y25.603
G01 X30.696 Y25.761
G01 X30.670 Y25.926
G01 X30.670 Y27.414
G01 X30.696 Y27.579
G01 X30.747 Y27.737
G01 X30.822 Y27.884
G01 X30.822 Y28.834
G01 X28.814 Y30.842
G01 X26.561 Y30.842
G01 X26.385 Y30.877
G01 X26.220 Y30.945
G01 X26.071 Y31.045
G01 X23.405 Y33.711
G01 X23.305 Y33.860
G01 X23.237 Y34.025
G01 X23.202 Y34.201
G01 X23.202 Y69.474
G01 X22.464 Y70.212
G01 X15.631 Y70.212
G01 X15.595 Y70.176
G01 X15.437 Y70.061
G01 X15.264 Y69.973
G01 X15.078 Y69.912
G01 X14.886 Y69.882
G00 Z1.000
G00 X14.886 Y67.342
G01 Z-0.200
G01 X13.014 Y67.342
G01 X12.822 Y67.372
G01 X12.636 Y67.433
G01 X12.463 Y67.521
G01 X12.305 Y67.636
G01 X12.167 Y67.773
G01 X12.053 Y67.931
G01 X11.964 Y68.105
G01 X11.904 Y68.290
G01 X11.874 Y68.483
G01 X11.874 Y68.677
G01 X11.904 Y68.870
G01 X11.964 Y69.055
G01 X12.053 Y69.229
G01 X12.167 Y69.387
G01 X12.305 Y69.524
G01 X12.463 Y69.639
G01 X12.636 Y69.727
G01 X12.822 Y69.788
G01 X13.014 Y69.818
G01 X14.886 Y69.818
G01 X15.078 Y69.788
G01 X15.264 Y69.727
G01 X15.437 Y69.639
G01 X15.595 Y69.524
G01 X15.733 Y69.387
G01 X15.847 Y69.229
G01 X15.936 Y69.055
G01 X15.996 Y68.870
G01 X16.026 Y68.677
G01 X16.026 Y68.483
G01 X15.996 Y68.290
G01 X15.936 Y68.105
G01 X15.847 Y67.931
G01 X15.733 Y67.773
G01 X15.595 Y67.636
G01 X15.437 Y67.521
G01 X15.264 Y67.433
G01 X15.078 Y67.372
G01 X14.886 Y67.342
G00 Z1.000
G00 X14.886 Y64.802
G01 Z-0.200
G01 X13.014 Y64.802
G01 X12.822 Y64.832
G01 X12.636 Y64.893
G01 X12.463 Y64.981
G01 X12.305 Y65.096
G01 X12.167 Y65.233
G01 X12.053 Y65.391
G01 X11.964 Y65.565
G01 X11.904 Y65.750
G01 X11.874 Y65.943
G01 X11.874 Y66.137
G01 X11.904 Y66.330
G01 X11.964 Y66.515
G01 X12.053 Y66.689
G01 X12.167 Y66.847
G01 X12.305 Y66.984
G01 X12.463 Y67.099
G01 X12.636 Y67.187
G01 X12.822 Y67.248
G01 X13.014 Y67.278
G01 X14.886 Y67.278
G01 X15.078 Y67.248
G01 X15.264 Y67.187
G01 X15.437 Y67.099
G01 X15.595 Y66.984
G01 X15.733 Y66.847
G01 X15.847 Y66.689
G01 X15.936 Y66.515
G01 X15.996 Y66.330
G01 X16.026 Y66.137
G01 X16.026 Y65.943
G01 X15.996 Y65.750
G01 X15.936 Y65.565
G01 X15.847 Y65.391
G01 X15.733 Y65.233
G01 X15.595 Y65.096
G01 X15.437 Y64.981
G01 X15.264 Y64.893
G01 X15.078 Y64.832
G01 X14.886 Y64.802
G00 Z1.000
G00 X14.886 Y62.262
G01 Z-0.200
G01 X13.014 Y62.262
G01 X12.822 Y62.292
G01 X12.636 Y62.353
G01 X12.463 Y62.441
G01 X12.305 Y62.556
G01 X12.167 Y62.693
G01 X12.053 Y62.851
G01 X11.964 Y63.025
G01 X11.904 Y63.210
G01 X11.874 Y63.403
G01 X11.874 Y63.597
G01 X11.904 Y63.790
G01 X11.964 Y63.975
G01 X12.053 Y64.149
G01 X12.167 Y64.307
G01 X12.305 Y64.444
G01 X12.463 Y64.559
G01 X12.636 Y64.647
G01 X12.822 Y64.708
G01 X13.014 Y64.738
G01 X14.886 Y64.738
G01 X15.078 Y64.708
G01 X15.264 Y64.647
G01 X15.437 Y64.559
G01 X15.595 Y64.444
G01 X15.733 Y64.307
G01 X15.847 Y64.149
G01 X15.936 Y63.975
G01 X15.996 Y63.790
G01 X16.026 Y63.597
G01 X16.026 Y63.403
G01 X15.996 Y63.210
G01 X15.936 Y63.025
G01 X15.847 Y62.851
G01 X15.733 Y62.693
G01 X15.595 Y62.556
G01 X15.437 Y62.441
G01 X15.264 Y62.353
G01 X15.078 Y62.292
G01 X14.886 Y62.262
G00 Z1.000
G00 X14.886 Y54.642
G01 Z-0.200
G01 X13.014 Y54.642
G01 X12.822 Y54.672
G01 X12.636 Y54.733
G01 X12.463 Y54.821
G01 X12.305 Y54.936
G01 X12.167 Y55.073
G01 X12.053 Y55.231
G01 X11.964 Y55.405
G01 X11.904 Y55.590
G01 X11.874 Y55.783
G01 X11.874 Y55.977
G01 X11.904 Y56.170
G01 X11.964 Y56.355
G01 X12.053 Y56.529
G01 X12.167 Y56.687
G01 X12.305 Y56.824
G01 X12.463 Y56.939
G01 X12.636 Y57.027
G01 X12.822 Y57.088
G01 X13.014 Y57.118
G01 X14.886 Y57.118
G01 X15.078 Y57.088
G01 X15.264 Y57.027
G01 X15.437 Y56.939
G01 X15.595 Y56.824
G01 X15.733 Y56.687
G01 X15.847 Y56.529
G01 X15.936 Y56.355
G01 X15.996 Y56.170
G01 X16.026 Y55.977
G01 X16.026 Y55.783
G01 X15.996 Y55.590
G01 X15.936 Y55.405
G01 X15.847 Y55.231
G01 X15.733 Y55.073
G01 X15.595 Y54.936
G01 X15.437 Y54.821
G01 X15.264 Y54.733
G01 X15.078 Y54.672
G01 X14.886 Y54.642
G00 Z1.000
G00 X14.886 Y49.562
G01 Z-0.200
G01 X13.014 Y49.562
G01 X12.822 Y49.592
G01 X12.636 Y49.653
G01 X12.463 Y49.741
G01 X12.305 Y49.856
G01 X12.167 Y49.993
G01 X12.053 Y50.151
G01 X11.964 Y50.325
G01 X11.904 Y50.510
G01 X11.874 Y50.703
G01 X11.874 Y50.897
G01 X11.904 Y51.090
G01 X11.964 Y51.275
G01 X12.053 Y51.449
G01 X12.167 Y51.607
G01 X12.305 Y51.744
G01 X12.463 Y51.859
G01 X12.636 Y51.947
G01 X12.822 Y52.008
G01 X13.014 Y52.038
G01 X14.886 Y52.038
G01 X15.078 Y52.008
G01 X15.264 Y51.947
G01 X15.437 Y51.859
G01 X15.595 Y51.744
G01 X15.733 Y51.607
G01 X15.847 Y51.449
G01 X15.936 Y51.275
G01 X15.996 Y51.090
G01 X16.026 Y50.897
G01 X16.026 Y50.703
G01 X15.996 Y50.510
G01 X15.936 Y50.325
G01 X15.847 Y50.151
G01 X15.733 Y49.993
G01 X15.595 Y49.856
G01 X15.437 Y49.741
G01 X15.264 Y49.653
G01 X15.078 Y49.592
G01 X14.886 Y49.562
G00 Z1.000
G00 X14.886 Y47.022
G01 Z-0.200
G01 X13.996 Y47.022
G01 X12.318 Y45.344
G01 X12.318 Y38.319
G01 X12.404 Y38.201
G01 X12.487 Y38.038
G01 X12.543 Y37.864
G01 X12.572 Y37.683
G01 X12.572 Y35.977
G01 X12.543 Y35.796
G01 X12.487 Y35.622
G01 X12.404 Y35.459
G01 X12.296 Y35.311
G01 X12.167 Y35.182
G01 X12.019 Y35.074
G01 X11.856 Y34.991
G01 X11.682 Y34.935
G01 X11.501 Y34.906
G01 X11.319 Y34.906
G01 X11.138 Y34.935
G01 X10.964 Y34.991
G01 X10.801 Y35.074
G01 X10.653 Y35.182
G01 X10.524 Y35.311
G01 X10.416 Y35.459
G01 X10.333 Y35.622
G01 X10.277 Y35.796
G01 X10.248 Y35.977
G01 X10.248 Y37.683
G01 X10.277 Y37.864
G01 X10.333 Y38.038
G01 X10.416 Y38.201
G01 X10.502 Y38.319
G01 X10.502 Y45.809
G01 X10.537 Y45.985
G01 X10.605 Y46.150
G01 X10.705 Y46.299
G01 X10.831 Y46.425
G01 X12.041 Y47.635
G01 X11.964 Y47.785
G01 X11.904 Y47.970
G01 X11.874 Y48.163
G01 X11.874 Y48.357
G01 X11.904 Y48.550
G01 X11.964 Y48.735
G01 X12.053 Y48.909
G01 X12.167 Y49.067
G01 X12.305 Y49.204
G01 X12.463 Y49.319
G01 X12.636 Y49.407
G01 X12.822 Y49.468
G01 X13.014 Y49.498
G01 X14.886 Y49.498
G01 X15.078 Y49.468
G01 X15.264 Y49.407
G01 X15.437 Y49.319
G01 X15.595 Y49.204
G01 X15.733 Y49.067
G01 X15.847 Y48.909
G01 X15.936 Y48.735
G01 X15.996 Y48.550
G01 X16.026 Y48.357
G01 X16.026 Y48.163
G01 X15.996 Y47.970
G01 X15.936 Y47.785
G01 X15.847 Y47.611
G01 X15.733 Y47.453
G01 X15.595 Y47.316
G01 X15.437 Y47.201
G01 X15.264 Y47.113
G01 X15.078 Y47.052
G01 X14.886 Y47.022
G00 Z1.000
G00 X10.032 Y37.683
G01 Z-0.200
G01 X10.032 Y35.977
G01 X10.003 Y35.796
G01 X9.947 Y35.622
G01 X9.864 Y35.459
G01 X9.778 Y35.341
G01 X9.778 Y32.126
G01 X12.726 Y29.178
G01 X13.193 Y29.178
G01 X13.918 Y28.453
G01 X13.918 Y27.427
G01 X13.193 Y26.702
G01 X12.167 Y26.702
G01 X11.442 Y27.427
G01 X11.442 Y27.894
G01 X8.165 Y31.171
G01 X8.065 Y31.320
G01 X7.997 Y31.485
G01 X7.962 Y31.661
G01 X7.962 Y35.341
G01 X7.876 Y35.459
G01 X7.793 Y35.622
G01 X7.737 Y35.796
G01 X7.708 Y35.977
G01 X7.708 Y37.683
G01 X7.737 Y37.864
G01 X7.793 Y38.038
G01 X7.876 Y38.201
G01 X7.962 Y38.319
G01 X7.962 Y50.889
G01 X7.997 Y51.065
G01 X8.065 Y51.230
G01 X8.165 Y51.379
G01 X8.291 Y51.505
G01 X10.831 Y54.045
G01 X10.980 Y54.145
G01 X11.145 Y54.213
G01 X11.321 Y54.248
G01 X12.269 Y54.248
G01 X12.305 Y54.284
G01 X12.463 Y54.399
G01 X12.636 Y54.487
G01 X12.822 Y54.548
G01 X13.014 Y54.578
G01 X14.886 Y54.578
G01 X15.078 Y54.548
G01 X15.264 Y54.487
G01 X15.437 Y54.399
G01 X15.595 Y54.284
G01 X15.733 Y54.147
G01 X15.847 Y53.989
G01 X15.936 Y53.815
G01 X15.996 Y53.630
G01 X16.026 Y53.437
G01 X16.026 Y53.243
G01 X15.996 Y53.050
G01 X15.936 Y52.865
G01 X15.847 Y52.691
G01 X15.733 Y52.533
G01 X15.595 Y52.396
G01 X15.437 Y52.281
G01 X15.264 Y52.193
G01 X15.078 Y52.132
G01 X14.886 Y52.102
G01 X13.014 Y52.102
G01 X12.822 Y52.132
G01 X12.636 Y52.193
G01 X12.463 Y52.281
G01 X12.305 Y52.396
G01 X12.269 Y52.432
G01 X11.786 Y52.432
G01 X9.778 Y50.424
G01 X9.778 Y38.319
G01 X9.864 Y38.201
G01 X9.947 Y38.038
G01 X10.003 Y37.864
G01 X10.032 Y37.683
G00 Z1.000
G00 X15.430 Y25.926
G01 Z-0.200
G01 X15.430 Y27.414
G01 X15.456 Y27.579
G01 X15.507 Y27.737
G01 X15.582 Y27.884
G01 X15.582 Y29.299
G01 X15.617 Y29.475
G01 X15.685 Y29.640
G01 X15.785 Y29.789
G01 X15.911 Y29.915
G01 X18.122 Y32.126
G01 X18.122 Y56.774
G01 X17.384 Y57.512
G01 X15.631 Y57.512
G01 X15.595 Y57.476
G01 X15.437 Y57.361
G01 X15.264 Y57.273
G01 X15.078 Y57.212
G01 X14.886 Y57.182
G01 X13.014 Y57.182
G01 X12.822 Y57.212
G01 X12.636 Y57.273
G01 X12.463 Y57.361
G01 X12.305 Y57.476
G01 X12.167 Y57.613
G01 X12.053 Y57.771
G01 X11.964 Y57.945
G01 X11.904 Y58.130
G01 X11.874 Y58.323
G01 X11.874 Y58.517
G01 X11.904 Y58.710
G01 X11.964 Y58.895
G01 X12.053 Y59.069
G01 X12.167 Y59.227
G01 X12.305 Y59.364
G01 X12.463 Y59.479
G01 X12.636 Y59.567
G01 X12.822 Y59.628
G01 X13.014 Y59.658
G01 X14.886 Y59.658
G01 X15.078 Y59.628
G01 X15.264 Y59.567
G01 X15.437 Y59.479
G01 X15.595 Y59.364
G01 X15.631 Y59.328
G01 X17.849 Y59.328
G01 X18.025 Y59.293
G01 X18.190 Y59.225
G01 X18.339 Y59.125
G01 X19.609 Y57.855
G01 X19.735 Y57.729
G01 X19.835 Y57.580
G01 X19.903 Y57.415
G01 X19.938 Y57.239
G01 X19.938 Y31.661
G01 X19.903 Y31.485
G01 X19.835 Y31.320
G01 X19.735 Y31.171
G01 X17.398 Y28.834
G01 X17.398 Y27.884
G01 X17.473 Y27.737
G01 X17.524 Y27.579
G01 X17.550 Y27.414
G01 X17.550 Y25.926
G01 X17.524 Y25.761
G01 X17.473 Y25.603
G01 X17.397 Y25.454
G01 X17.299 Y25.319
G01 X17.181 Y25.201
G01 X17.046 Y25.103
G01 X16.897 Y25.027
G01 X16.738 Y24.975
G01 X16.573 Y24.949
G01 X16.407 Y24.949
G01 X16.242 Y24.975
G01 X16.083 Y25.027
G01 X15.934 Y25.103
G01 X15.799 Y25.201
G01 X15.681 Y25.319
G01 X15.583 Y25.454
G01 X15.507 Y25.603
G01 X15.456 Y25.761
G01 X15.430 Y25.926
G00 Z1.000
G00 X17.970 Y25.926
G01 Z-0.200
G01 X17.970 Y27.414
G01 X17.996 Y27.579
G01 X18.047 Y27.737
G01 X18.123 Y27.886
G01 X18.221 Y28.021
G01 X18.339 Y28.139
G01 X18.474 Y28.237
G01 X18.623 Y28.313
G01 X18.782 Y28.365
G01 X18.947 Y28.391
G01 X19.113 Y28.391
G01 X19.278 Y28.365
G01 X19.437 Y28.313
G01 X19.586 Y28.237
G01 X19.721 Y28.139
G01 X19.839 Y28.021
G01 X19.937 Y27.886
G01 X20.013 Y27.737
G01 X20.064 Y27.579
G01 X20.090 Y27.414
G01 X20.090 Y25.926
G01 X20.064 Y25.761
G01 X20.013 Y25.603
G01 X19.937 Y25.454
G01 X19.839 Y25.319
G01 X19.721 Y25.201
G01 X19.586 Y25.103
G01 X19.437 Y25.027
G01 X19.278 Y24.975
G01 X19.113 Y24.949
G01 X18.947 Y24.949
G01 X18.782 Y24.975
G01 X18.623 Y25.027
G01 X18.474 Y25.103
G01 X18.339 Y25.201
G01 X18.221 Y25.319
G01 X18.123 Y25.454
G01 X18.047 Y25.603
G01 X17.996 Y25.761
G01 X17.970 Y25.926
G00 Z1.000
G00 X20.510 Y25.926
G01 Z-0.200
G01 X20.510 Y27.414
G01 X20.536 Y27.579
G01 X20.587 Y27.737
G01 X20.663 Y27.886
G01 X20.761 Y28.021
G01 X20.879 Y28.139
G01 X21.014 Y28.237
G01 X21.163 Y28.313
G01 X21.322 Y28.365
G01 X21.487 Y28.391
G01 X21.653 Y28.391
G01 X21.818 Y28.365
G01 X21.977 Y28.313
G01 X22.126 Y28.237
G01 X22.261 Y28.139
G01 X22.379 Y28.021
G01 X22.477 Y27.886
G01 X22.553 Y27.737
G01 X22.604 Y27.579
G01 X22.630 Y27.414
G01 X22.630 Y25.926
G01 X22.604 Y25.761
G01 X22.553 Y25.603
G01 X22.477 Y25.454
G01 X22.379 Y25.319
G01 X22.261 Y25.201
G01 X22.126 Y25.103
G01 X21.977 Y25.027
G01 X21.818 Y24.975
G01 X21.653 Y24.949
G01 X21.487 Y24.949
G01 X21.322 Y24.975
G01 X21.163 Y25.027
G01 X21.014 Y25.103
G01 X20.879 Y25.201
G01 X20.761 Y25.319
G01 X20.663 Y25.454
G01 X20.587 Y25.603
G01 X20.536 Y25.761
G01 X20.510 Y25.926
G00 Z1.000
G00 X23.050 Y25.926
G01 Z-0.200
G01 X23.050 Y27.414
G01 X23.076 Y27.579
G01 X23.127 Y27.737
G01 X23.202 Y27.884
G01 X23.202 Y28.834
G01 X20.991 Y31.045
G01 X20.991 Y31.045
G01 X20.865 Y31.171
G01 X20.765 Y31.320
G01 X20.697 Y31.485
G01 X20.662 Y31.661
G01 X20.662 Y59.314
G01 X19.924 Y60.052
G01 X15.631 Y60.052
G01 X15.595 Y60.016
G01 X15.437 Y59.901
G01 X15.264 Y59.813
G01 X15.078 Y59.752
G01 X14.886 Y59.722
G01 X13.014 Y59.722
G01 X12.822 Y59.752
G01 X12.636 Y59.813
G01 X12.463 Y59.901
G01 X12.305 Y60.016
G01 X12.167 Y60.153
G01 X12.053 Y60.311
G01 X11.964 Y60.485
G01 X11.904 Y60.670
G01 X11.874 Y60.863
G01 X11.874 Y61.057
G01 X11.904 Y61.250
G01 X11.964 Y61.435
G01 X12.053 Y61.609
G01 X12.167 Y61.767
G01 X12.305 Y61.904
G01 X12.463 Y62.019
G01 X12.636 Y62.107
G01 X12.822 Y62.168
G01 X13.014 Y62.198
G01 X14.886 Y62.198
G01 X15.078 Y62.168
G01 X15.264 Y62.107
G01 X15.437 Y62.019
G01 X15.595 Y61.904
G01 X15.631 Y61.868
G01 X20.389 Y61.868
G01 X20.565 Y61.833
G01 X20.730 Y61.765
G01 X20.879 Y61.665
G01 X22.149 Y60.395
G01 X22.275 Y60.269
G01 X22.375 Y60.120
G01 X22.443 Y59.955
G01 X22.478 Y59.779
G01 X22.478 Y32.126
G01 X24.689 Y29.915
G01 X24.689 Y29.915
G01 X24.815 Y29.789
G01 X24.915 Y29.640
G01 X24.983 Y29.475
G01 X25.018 Y29.299
G01 X25.018 Y27.884
G01 X25.093 Y27.737
G01 X25.144 Y27.579
G01 X25.170 Y27.414
G01 X25.170 Y25.926
G01 X25.144 Y25.761
G01 X25.093 Y25.603
G01 X25.017 Y25.454
G01 X24.919 Y25.319
G01 X24.801 Y25.201
G01 X24.666 Y25.103
G01 X24.517 Y25.027
G01 X24.358 Y24.975
G01 X24.193 Y24.949
G01 X24.027 Y24.949
G01 X23.862 Y24.975
G01 X23.703 Y25.027
G01 X23.554 Y25.103
G01 X23.419 Y25.201
G01 X23.301 Y25.319
G01 X23.203 Y25.454
G01 X23.127 Y25.603
G01 X23.076 Y25.761
G01 X23.050 Y25.926
G00 Z1.000
G00 X25.590 Y25.926
G01 Z-0.200
G01 X25.590 Y27.414
G01 X25.616 Y27.579
G01 X25.667 Y27.737
G01 X25.743 Y27.886
G01 X25.841 Y28.021
G01 X25.959 Y28.139
G01 X26.094 Y28.237
G01 X26.243 Y28.313
G01 X26.402 Y28.365
G01 X26.567 Y28.391
G01 X26.733 Y28.391
G01 X26.898 Y28.365
G01 X27.057 Y28.313
G01 X27.206 Y28.237
G01 X27.341 Y28.139
G01 X27.459 Y28.021
G01 X27.557 Y27.886
G01 X27.633 Y27.737
G01 X27.684 Y27.579
G01 X27.710 Y27.414
G01 X27.710 Y25.926
G01 X27.684 Y25.761
G01 X27.633 Y25.603
G01 X27.557 Y25.454
G01 X27.459 Y25.319
G01 X27.341 Y25.201
G01 X27.206 Y25.103
G01 X27.057 Y25.027
G01 X26.898 Y24.975
G01 X26.733 Y24.949
G01 X26.567 Y24.949
G01 X26.402 Y24.975
G01 X26.243 Y25.027
G01 X26.094 Y25.103
G01 X25.959 Y25.201
G01 X25.841 Y25.319
G01 X25.743 Y25.454
G01 X25.667 Y25.603
G01 X25.616 Y25.761
G01 X25.590 Y25.926
G00 Z1.000
G00 X28.130 Y25.926
G01 Z-0.200
G01 X28.130 Y27.414
G01 X28.156 Y27.579
G01 X28.207 Y27.737
G01 X28.283 Y27.886
G01 X28.381 Y28.021
G01 X28.499 Y28.139
G01 X28.634 Y28.237
G01 X28.783 Y28.313
G01 X28.942 Y28.365
G01 X29.107 Y28.391
G01 X29.273 Y28.391
G01 X29.438 Y28.365
G01 X29.597 Y28.313
G01 X29.746 Y28.237
G01 X29.881 Y28.139
G01 X29.999 Y28.021
G01 X30.097 Y27.886
G01 X30.173 Y27.737
G01 X30.224 Y27.579
G01 X30.250 Y27.414
G01 X30.250 Y25.926
G01 X30.224 Y25.761
G01 X30.173 Y25.603
G01 X30.097 Y25.454
G01 X29.999 Y25.319
G01 X29.881 Y25.201
G01 X29.746 Y25.103
G01 X29.597 Y25.027
G01 X29.438 Y24.975
G01 X29.273 Y24.949
G01 X29.107 Y24.949
G01 X28.942 Y24.975
G01 X28.783 Y25.027
G01 X28.634 Y25.103
G01 X28.499 Y25.201
G01 X28.381 Y25.319
G01 X28.283 Y25.454
G01 X28.207 Y25.603
G01 X28.156 Y25.761
G01 X28.130 Y25.926
G00 Z1.000
G00 X33.210 Y25.926
G01 Z-0.200
G01 X33.210 Y27.414
G01 X33.236 Y27.579
G01 X33.287 Y27.737
G01 X33.362 Y27.884
G01 X33.362 Y37.192
G01 X32.911 Y37.192
G01 X32.735 Y37.227
G01 X32.570 Y37.295
G01 X32.421 Y37.395
G01 X32.295 Y37.521
G01 X32.195 Y37.670
G01 X32.127 Y37.835
G01 X32.092 Y38.011
G01 X32.092 Y74.554
G01 X31.025 Y75.621
G01 X30.925 Y75.770
G01 X30.857 Y75.935
G01 X30.822 Y76.111
G01 X30.822 Y88.989
G01 X30.857 Y89.165
G01 X30.925 Y89.330
G01 X31.025 Y89.479
G01 X31.151 Y89.605
G01 X31.151 Y89.605
G01 X33.691 Y92.145
G01 X33.840 Y92.245
G01 X34.005 Y92.313
G01 X34.181 Y92.348
G01 X35.129 Y92.348
G01 X35.165 Y92.384
G01 X35.323 Y92.499
G01 X35.496 Y92.587
G01 X35.682 Y92.648
G01 X35.874 Y92.678
G01 X37.746 Y92.678
G01 X37.938 Y92.648
G01 X38.124 Y92.587
G01 X38.297 Y92.499
G01 X38.455 Y92.384
G01 X38.491 Y92.348
G01 X41.979 Y92.348
G01 X42.155 Y92.313
G01 X42.320 Y92.245
G01 X42.469 Y92.145
G01 X42.595 Y92.019
G01 X42.595 Y92.019
G01 X44.806 Y89.808
G01 X60.032 Y89.808
G01 X60.032 Y99.177
G01 X59.906 Y99.197
G01 X59.732 Y99.253
G01 X59.569 Y99.336
G01 X59.451 Y99.422
G01 X56.079 Y99.422
G01 X55.961 Y99.336
G01 X55.798 Y99.253
G01 X55.624 Y99.197
G01 X55.443 Y99.168
G01 X53.737 Y99.168
G01 X53.556 Y99.197
G01 X53.382 Y99.253
G01 X53.219 Y99.336
G01 X53.101 Y99.422
G01 X49.729 Y99.422
G01 X49.611 Y99.336
G01 X49.448 Y99.253
G01 X49.274 Y99.197
G01 X49.093 Y99.168
G01 X47.387 Y99.168
G01 X47.206 Y99.197
G01 X47.032 Y99.253
G01 X46.869 Y99.336
G01 X46.751 Y99.422
G01 X44.341 Y99.422
G01 X44.165 Y99.457
G01 X44.000 Y99.525
G01 X43.851 Y99.625
G01 X40.483 Y102.993
G01 X40.350 Y103.014
G01 X40.177 Y103.071
G01 X40.015 Y103.153
G01 X39.868 Y103.260
G01 X39.740 Y103.388
G01 X39.633 Y103.535
G01 X39.551 Y103.697
G01 X39.494 Y103.870
G01 X39.466 Y104.049
G01 X39.466 Y104.231
G01 X39.494 Y104.410
G01 X39.551 Y104.583
G01 X39.633 Y104.745
G01 X39.740 Y104.892
G01 X39.868 Y105.020
G01 X40.015 Y105.127
G01 X40.177 Y105.209
G01 X40.350 Y105.266
G01 X40.529 Y105.294
G01 X40.711 Y105.294
G01 X40.890 Y105.266
G01 X41.063 Y105.209
G01 X41.225 Y105.127
G01 X41.372 Y105.020
G01 X41.500 Y104.892
G01 X41.607 Y104.745
G01 X41.689 Y104.583
G01 X41.746 Y104.410
G01 X41.767 Y104.277
G01 X44.806 Y101.238
G01 X46.751 Y101.238
G01 X46.869 Y101.324
G01 X47.032 Y101.407
G01 X47.206 Y101.463
G01 X47.387 Y101.492
G01 X49.093 Y101.492
G01 X49.274 Y101.463
G01 X49.448 Y101.407
G01 X49.611 Y101.324
G01 X49.729 Y101.238
G01 X53.101 Y101.238
G01 X53.219 Y101.324
G01 X53.382 Y101.407
G01 X53.556 Y101.463
G01 X53.737 Y101.492
G01 X55.443 Y101.492
G01 X55.624 Y101.463
G01 X55.798 Y101.407
G01 X55.961 Y101.324
G01 X56.079 Y101.238
G01 X59.451 Y101.238
G01 X59.569 Y101.324
G01 X59.732 Y101.407
G01 X59.906 Y101.463
G01 X60.087 Y101.492
G01 X61.793 Y101.492
G01 X61.974 Y101.463
G01 X62.148 Y101.407
G01 X62.311 Y101.324
G01 X62.429 Y101.238
G01 X65.801 Y101.238
G01 X65.919 Y101.324
G01 X66.082 Y101.407
G01 X66.256 Y101.463
G01 X66.437 Y101.492
G01 X68.143 Y101.492
G01 X68.324 Y101.463
G01 X68.498 Y101.407
G01 X68.661 Y101.324
G01 X68.809 Y101.216
G01 X68.938 Y101.087
G01 X69.046 Y100.939
G01 X69.129 Y100.776
G01 X69.185 Y100.602
G01 X69.214 Y100.421
G01 X69.214 Y100.239
G01 X69.185 Y100.058
G01 X69.129 Y99.884
G01 X69.046 Y99.721
G01 X68.938 Y99.573
G01 X68.809 Y99.444
G01 X68.661 Y99.336
G01 X68.498 Y99.253
G01 X68.324 Y99.197
G01 X68.143 Y99.168
G01 X66.437 Y99.168
G01 X66.256 Y99.197
G01 X66.082 Y99.253
G01 X65.919 Y99.336
G01 X65.801 Y99.422
G01 X62.429 Y99.422
G01 X62.311 Y99.336
G01 X62.148 Y99.253
G01 X61.974 Y99.197
G01 X61.848 Y99.177
G01 X61.848 Y89.808
G01 X64.839 Y89.808
G01 X65.015 Y89.773
G01 X65.180 Y89.705
G01 X65.329 Y89.605
G01 X65.455 Y89.479
G01 X66.142 Y88.792
G01 X66.873 Y88.792
G01 X67.054 Y88.763
G01 X67.228 Y88.707
G01 X67.391 Y88.624
G01 X67.539 Y88.516
G01 X67.668 Y88.387
G01 X67.776 Y88.239
G01 X67.859 Y88.076
G01 X67.915 Y87.902
G01 X67.944 Y87.721
G01 X67.944 Y87.539
G01 X67.915 Y87.358
G01 X67.859 Y87.184
G01 X67.776 Y87.021
G01 X67.668 Y86.873
G01 X67.539 Y86.744
G01 X67.391 Y86.636
G01 X67.228 Y86.553
G01 X67.054 Y86.497
G01 X66.873 Y86.468
G01 X65.167 Y86.468
G01 X64.986 Y86.497
G01 X64.812 Y86.553
G01 X64.649 Y86.636
G01 X64.501 Y86.744
G01 X64.372 Y86.873
G01 X64.264 Y87.021
G01 X64.181 Y87.184
G01 X64.125 Y87.358
G01 X64.096 Y87.539
G01 X64.096 Y87.721
G01 X64.125 Y87.902
G01 X64.154 Y87.992
G01 X44.341 Y87.992
G01 X44.165 Y88.027
G01 X44.000 Y88.095
G01 X43.851 Y88.195
G01 X43.725 Y88.321
G01 X41.514 Y90.532
G01 X38.491 Y90.532
G01 X38.455 Y90.496
G01 X38.297 Y90.381
G01 X38.124 Y90.293
G01 X37.938 Y90.232
G01 X37.746 Y90.202
G01 X35.874 Y90.202
G01 X35.682 Y90.232
G01 X35.496 Y90.293
G01 X35.323 Y90.381
G01 X35.165 Y90.496
G01 X35.129 Y90.532
G01 X34.646 Y90.532
G01 X32.638 Y88.524
G01 X32.638 Y76.576
G01 X33.579 Y75.635
G01 X33.705 Y75.509
G01 X33.805 Y75.360
G01 X33.873 Y75.195
G01 X33.908 Y75.019
G01 X33.908 Y66.948
G01 X35.129 Y66.948
G01 X35.165 Y66.984
G01 X35.323 Y67.099
G01 X35.496 Y67.187
G01 X35.682 Y67.248
G01 X35.874 Y67.278
G01 X37.746 Y67.278
G01 X37.938 Y67.248
G01 X38.124 Y67.187
G01 X38.297 Y67.099
G01 X38.455 Y66.984
G01 X38.593 Y66.847
G01 X38.707 Y66.689
G01 X38.796 Y66.515
G01 X38.856 Y66.330
G01 X38.886 Y66.137
G01 X38.886 Y65.943
G01 X38.856 Y65.750
G01 X38.796 Y65.565
G01 X38.707 Y65.391
G01 X38.593 Y65.233
G01 X38.455 Y65.096
G01 X38.297 Y64.981
G01 X38.124 Y64.893
G01 X37.938 Y64.832
G01 X37.746 Y64.802
G01 X37.718 Y64.802
G01 X37.718 Y64.738
G01 X37.746 Y64.738
G01 X37.938 Y64.708
G01 X38.124 Y64.647
G01 X38.297 Y64.559
G01 X38.455 Y64.444
G01 X38.593 Y64.307
G01 X38.707 Y64.149
G01 X38.796 Y63.975
G01 X38.856 Y63.790
G01 X38.886 Y63.597
G01 X38.886 Y63.403
G01 X38.856 Y63.210
G01 X38.796 Y63.025
G01 X38.707 Y62.851
G01 X38.593 Y62.693
G01 X38.455 Y62.556
G01 X38.297 Y62.441
G01 X38.124 Y62.353
G01 X37.938 Y62.292
G01 X37.746 Y62.262
G01 X35.874 Y62.262
G01 X35.682 Y62.292
G01 X35.496 Y62.353
G01 X35.323 Y62.441
G01 X35.165 Y62.556
G01 X35.027 Y62.693
G01 X34.913 Y62.851
G01 X34.824 Y63.025
G01 X34.764 Y63.210
G01 X34.734 Y63.403
G01 X34.734 Y63.597
G01 X34.764 Y63.790
G01 X34.824 Y63.975
G01 X34.913 Y64.149
G01 X35.027 Y64.307
G01 X35.165 Y64.444
G01 X35.323 Y64.559
G01 X35.496 Y64.647
G01 X35.682 Y64.708
G01 X35.874 Y64.738
G01 X35.902 Y64.738
G01 X35.902 Y64.802
G01 X35.874 Y64.802
G01 X35.682 Y64.832
G01 X35.496 Y64.893
G01 X35.323 Y64.981
G01 X35.165 Y65.096
G01 X35.129 Y65.132
G01 X33.908 Y65.132
G01 X33.908 Y39.008
G01 X52.944 Y39.008
G01 X56.222 Y42.286
G01 X56.222 Y48.622
G01 X54.163 Y48.622
G01 X54.127 Y48.586
G01 X53.969 Y48.471
G01 X53.795 Y48.383
G01 X53.610 Y48.322
G01 X53.417 Y48.292
G01 X51.546 Y48.292
G01 X51.354 Y48.322
G01 X51.168 Y48.383
G01 X50.995 Y48.471
G01 X50.837 Y48.586
G01 X50.699 Y48.723
G01 X50.585 Y48.881
G01 X50.496 Y49.055
G01 X50.436 Y49.240
G01 X50.405 Y49.433
G01 X50.405 Y49.627
G01 X50.436 Y49.820
G01 X50.496 Y50.005
G01 X50.585 Y50.179
G01 X50.699 Y50.337
G01 X50.837 Y50.474
G01 X50.995 Y50.589
G01 X51.168 Y50.677
G01 X51.354 Y50.738
G01 X51.546 Y50.768
G01 X53.417 Y50.768
G01 X53.610 Y50.738
G01 X53.795 Y50.677
G01 X53.969 Y50.589
G01 X54.127 Y50.474
G01 X54.163 Y50.438
G01 X56.222 Y50.438
G01 X56.222 Y58.782
G01 X54.163 Y58.782
G01 X54.127 Y58.746
G01 X53.969 Y58.631
G01 X53.795 Y58.543
G01 X53.610 Y58.482
G01 X53.417 Y58.452
G01 X51.546 Y58.452
G01 X51.354 Y58.482
G01 X51.168 Y58.543
G01 X50.995 Y58.631
G01 X50.837 Y58.746
G01 X50.699 Y58.883
G01 X50.585 Y59.041
G01 X50.496 Y59.215
G01 X50.436 Y59.400
G01 X50.405 Y59.593
G01 X50.405 Y59.787
G01 X50.436 Y59.980
G01 X50.496 Y60.165
G01 X50.585 Y60.339
G01 X50.699 Y60.497
G01 X50.837 Y60.634
G01 X50.995 Y60.749
G01 X51.168 Y60.837
G01 X51.354 Y60.898
G01 X51.546 Y60.928
G01 X53.417 Y60.928
G01 X53.610 Y60.898
G01 X53.795 Y60.837
G01 X53.969 Y60.749
G01 X54.127 Y60.634
G01 X54.163 Y60.598
G01 X57.219 Y60.598
G01 X57.395 Y60.563
G01 X57.560 Y60.495
G01 X57.709 Y60.395
G01 X57.835 Y60.269
G01 X57.935 Y60.120
G01 X58.003 Y59.955
G01 X58.038 Y59.779
G01 X58.038 Y41.821
G01 X58.003 Y41.645
G01 X57.935 Y41.480
G01 X57.835 Y41.331
G01 X54.025 Y37.521
G01 X53.899 Y37.395
G01 X53.750 Y37.295
G01 X53.585 Y37.227
G01 X53.409 Y37.192
G01 X35.178 Y37.192
G01 X35.178 Y27.884
G01 X35.253 Y27.737
G01 X35.304 Y27.579
G01 X35.330 Y27.414
G01 X35.330 Y25.926
G01 X35.304 Y25.761
G01 X35.253 Y25.603
G01 X35.178 Y25.456
G01 X35.178 Y24.041
G01 X35.143 Y23.865
G01 X35.075 Y23.700
G01 X34.975 Y23.551
G01 X33.579 Y22.155
G01 X33.430 Y22.055
G01 X33.265 Y21.987
G01 X33.089 Y21.952
G01 X15.131 Y21.952
G01 X14.955 Y21.987
G01 X14.790 Y22.055
G01 X14.641 Y22.155
G01 X13.574 Y23.222
G01 X12.591 Y23.222
G01 X12.415 Y23.257
G01 X12.250 Y23.325
G01 X12.101 Y23.425
G01 X11.975 Y23.551
G01 X11.875 Y23.700
G01 X11.807 Y23.865
G01 X11.772 Y24.041
G01 X11.772 Y24.219
G01 X11.807 Y24.395
G01 X11.875 Y24.560
G01 X11.975 Y24.709
G01 X12.101 Y24.835
G01 X12.250 Y24.935
G01 X12.415 Y25.003
G01 X12.591 Y25.038
G01 X14.039 Y25.038
G01 X14.215 Y25.003
G01 X14.380 Y24.935
G01 X14.529 Y24.835
G01 X14.655 Y24.709
G01 X15.596 Y23.768
G01 X32.624 Y23.768
G01 X33.362 Y24.506
G01 X33.362 Y25.456
G01 X33.287 Y25.603
G01 X33.236 Y25.761
G01 X33.210 Y25.926
G00 Z1.000
G00 X33.210 Y18.306
G01 Z-0.200
G01 X33.210 Y19.794
G01 X33.236 Y19.959
G01 X33.287 Y20.117
G01 X33.363 Y20.266
G01 X33.461 Y20.401
G01 X33.579 Y20.519
G01 X33.714 Y20.617
G01 X33.863 Y20.693
G01 X34.022 Y20.745
G01 X34.187 Y20.771
G01 X34.353 Y20.771
G01 X34.518 Y20.745
G01 X34.677 Y20.693
G01 X34.826 Y20.617
G01 X34.961 Y20.519
G01 X35.079 Y20.401
G01 X35.177 Y20.266
G01 X35.253 Y20.117
G01 X35.304 Y19.959
G01 X35.330 Y19.794
G01 X35.330 Y18.306
G01 X35.304 Y18.141
G01 X35.253 Y17.983
G01 X35.177 Y17.834
G01 X35.079 Y17.699
G01 X34.961 Y17.581
G01 X34.826 Y17.483
G01 X34.677 Y17.407
G01 X34.518 Y17.355
G01 X34.353 Y17.329
G01 X34.187 Y17.329
G01 X34.022 Y17.355
G01 X33.863 Y17.407
G01 X33.714 Y17.483
G01 X33.579 Y17.581
G01 X33.461 Y17.699
G01 X33.363 Y17.834
G01 X33.287 Y17.983
G01 X33.236 Y18.141
G01 X33.210 Y18.306
G00 Z1.000
G00 X28.130 Y18.306
G01 Z-0.200
G01 X28.130 Y19.794
G01 X28.156 Y19.959
G01 X28.207 Y20.117
G01 X28.283 Y20.266
G01 X28.381 Y20.401
G01 X28.499 Y20.519
G01 X28.634 Y20.617
G01 X28.783 Y20.693
G01 X28.942 Y20.745
G01 X29.107 Y20.771
G01 X29.273 Y20.771
G01 X29.438 Y20.745
G01 X29.597 Y20.693
G01 X29.746 Y20.617
G01 X29.881 Y20.519
G01 X29.999 Y20.401
G01 X30.097 Y20.266
G01 X30.173 Y20.117
G01 X30.224 Y19.959
G01 X30.250 Y19.794
G01 X30.250 Y18.306
G01 X30.224 Y18.141
G01 X30.173 Y17.983
G01 X30.097 Y17.834
G01 X29.999 Y17.699
G01 X29.881 Y17.581
G01 X29.746 Y17.483
G01 X29.597 Y17.407
G01 X29.438 Y17.355
G01 X29.273 Y17.329
G01 X29.107 Y17.329
G01 X28.942 Y17.355
G01 X28.783 Y17.407
G01 X28.634 Y17.483
G01 X28.499 Y17.581
G01 X28.381 Y17.699
G01 X28.283 Y17.834
G01 X28.207 Y17.983
G01 X28.156 Y18.141
G01 X28.130 Y18.306
G00 Z1.000
G00 X25.590 Y18.306
G01 Z-0.200
G01 X25.590 Y19.794
G01 X25.616 Y19.959
G01 X25.667 Y20.117
G01 X25.743 Y20.266
G01 X25.841 Y20.401
G01 X25.959 Y20.519
G01 X26.094 Y20.617
G01 X26.243 Y20.693
G01 X26.402 Y20.745
G01 X26.567 Y20.771
G01 X26.733 Y20.771
G01 X26.898 Y20.745
G01 X27.057 Y20.693
G01 X27.206 Y20.617
G01 X27.341 Y20.519
G01 X27.459 Y20.401
G01 X27.557 Y20.266
G01 X27.633 Y20.117
G01 X27.684 Y19.959
G01 X27.710 Y19.794
G01 X27.710 Y18.306
G01 X27.684 Y18.141
G01 X27.633 Y17.983
G01 X27.557 Y17.834
G01 X27.459 Y17.699
G01 X27.341 Y17.581
G01 X27.206 Y17.483
G01 X27.057 Y17.407
G01 X26.898 Y17.355
G01 X26.733 Y17.329
G01 X26.567 Y17.329
G01 X26.402 Y17.355
G01 X26.243 Y17.407
G01 X26.094 Y17.483
G01 X25.959 Y17.581
G01 X25.841 Y17.699
G01 X25.743 Y17.834
G01 X25.667 Y17.983
G01 X25.616 Y18.141
G01 X25.590 Y18.306
G00 Z1.000
G00 X23.050 Y18.306
G01 Z-0.200
G01 X23.050 Y19.794
G01 X23.076 Y19.959
G01 X23.127 Y20.117
G01 X23.203 Y20.266
G01 X23.301 Y20.401
G01 X23.419 Y20.519
G01 X23.554 Y20.617
G01 X23.703 Y20.693
G01 X23.862 Y20.745
G01 X24.027 Y20.771
G01 X24.193 Y20.771
G01 X24.358 Y20.745
G01 X24.517 Y20.693
G01 X24.666 Y20.617
G01 X24.801 Y20.519
G01 X24.919 Y20.401
G01 X25.017 Y20.266
G01 X25.093 Y20.117
G01 X25.144 Y19.959
G01 X25.170 Y19.794
G01 X25.170 Y18.306
G01 X25.144 Y18.141
G01 X25.093 Y17.983
G01 X25.018 Y17.836
G01 X25.018 Y16.886
G01 X28.625 Y13.279
G01 X28.725 Y13.130
G01 X28.793 Y12.965
G01 X28.828 Y12.789
G01 X28.828 Y9.109
G01 X28.914 Y8.991
G01 X28.997 Y8.828
G01 X29.053 Y8.654
G01 X29.082 Y8.473
G01 X29.082 Y6.767
G01 X29.053 Y6.586
G01 X28.997 Y6.412
G01 X28.914 Y6.249
G01 X28.806 Y6.101
G01 X28.677 Y5.972
G01 X28.529 Y5.864
G01 X28.366 Y5.781
G01 X28.192 Y5.725
G01 X28.011 Y5.696
G01 X27.829 Y5.696
G01 X27.648 Y5.725
G01 X27.474 Y5.781
G01 X27.311 Y5.864
G01 X27.163 Y5.972
G01 X27.034 Y6.101
G01 X26.926 Y6.249
G01 X26.843 Y6.412
G01 X26.787 Y6.586
G01 X26.758 Y6.767
G01 X26.758 Y8.473
G01 X26.787 Y8.654
G01 X26.843 Y8.828
G01 X26.926 Y8.991
G01 X27.012 Y9.109
G01 X27.012 Y12.324
G01 X23.405 Y15.931
G01 X23.305 Y16.080
G01 X23.237 Y16.245
G01 X23.202 Y16.421
G01 X23.202 Y17.836
G01 X23.127 Y17.983
G01 X23.076 Y18.141
G01 X23.050 Y18.306
G00 Z1.000
G00 X20.510 Y18.306
G01 Z-0.200
G01 X20.510 Y19.794
G01 X20.536 Y19.959
G01 X20.587 Y20.117
G01 X20.663 Y20.266
G01 X20.761 Y20.401
G01 X20.879 Y20.519
G01 X21.014 Y20.617
G01 X21.163 Y20.693
G01 X21.322 Y20.745
G01 X21.487 Y20.771
G01 X21.653 Y20.771
G01 X21.818 Y20.745
G01 X21.977 Y20.693
G01 X22.126 Y20.617
G01 X22.261 Y20.519
G01 X22.379 Y20.401
G01 X22.477 Y20.266
G01 X22.553 Y20.117
G01 X22.604 Y19.959
G01 X22.630 Y19.794
G01 X22.630 Y18.306
G01 X22.604 Y18.141
G01 X22.553 Y17.983
G01 X22.477 Y17.834
G01 X22.379 Y17.699
G01 X22.261 Y17.581
G01 X22.126 Y17.483
G01 X21.977 Y17.407
G01 X21.818 Y17.355
G01 X21.653 Y17.329
G01 X21.487 Y17.329
G01 X21.322 Y17.355
G01 X21.163 Y17.407
G01 X21.014 Y17.483
G01 X20.879 Y17.581
G01 X20.761 Y17.699
G01 X20.663 Y17.834
G01 X20.587 Y17.983
G01 X20.536 Y18.141
G01 X20.510 Y18.306
G00 Z1.000
G00 X17.970 Y18.306
G01 Z-0.200
G01 X17.970 Y19.794
G01 X17.996 Y19.959
G01 X18.047 Y20.117
G01 X18.123 Y20.266
G01 X18.221 Y20.401
G01 X18.339 Y20.519
G01 X18.474 Y20.617
G01 X18.623 Y20.693
G01 X18.782 Y20.745
G01 X18.947 Y20.771
G01 X19.113 Y20.771
G01 X19.278 Y20.745
G01 X19.437 Y20.693
G01 X19.586 Y20.617
G01 X19.721 Y20.519
G01 X19.839 Y20.401
G01 X19.937 Y20.266
G01 X20.013 Y20.117
G01 X20.064 Y19.959
G01 X20.090 Y19.794
G01 X20.090 Y18.306
G01 X20.064 Y18.141
G01 X20.013 Y17.983
G01 X19.937 Y17.834
G01 X19.839 Y17.699
G01 X19.721 Y17.581
G01 X19.586 Y17.483
G01 X19.437 Y17.407
G01 X19.278 Y17.355
G01 X19.113 Y17.329
G01 X18.947 Y17.329
G01 X18.782 Y17.355
G01 X18.623 Y17.407
G01 X18.474 Y17.483
G01 X18.339 Y17.581
G01 X18.221 Y17.699
G01 X18.123 Y17.834
G01 X18.047 Y17.983
G01 X17.996 Y18.141
G01 X17.970 Y18.306
G00 Z1.000
G00 X16.382 Y6.767
G01 Z-0.200
G01 X16.353 Y6.586
G01 X16.297 Y6.412
G01 X16.214 Y6.249
G01 X16.106 Y6.101
G01 X15.977 Y5.972
G01 X15.829 Y5.864
G01 X15.666 Y5.781
G01 X15.492 Y5.725
G01 X15.311 Y5.696
G01 X15.129 Y5.696
G01 X14.948 Y5.725
G01 X14.774 Y5.781
G01 X14.611 Y5.864
G01 X14.463 Y5.972
G01 X14.334 Y6.101
G01 X14.226 Y6.249
G01 X14.143 Y6.412
G01 X14.087 Y6.586
G01 X14.058 Y6.767
G01 X14.058 Y8.473
G01 X14.087 Y8.654
G01 X14.143 Y8.828
G01 X14.226 Y8.991
G01 X14.334 Y9.139
G01 X14.463 Y9.268
G01 X14.611 Y9.376
G01 X14.774 Y9.459
G01 X14.948 Y9.515
G01 X15.129 Y9.544
G01 X15.311 Y9.544
G01 X15.492 Y9.515
G01 X15.582 Y9.486
G01 X15.582 Y17.836
G01 X15.507 Y17.983
G01 X15.456 Y18.141
G01 X15.430 Y18.306
G01 X15.430 Y19.794
G01 X15.456 Y19.959
G01 X15.507 Y20.117
G01 X15.583 Y20.266
G01 X15.681 Y20.401
G01 X15.799 Y20.519
G01 X15.934 Y20.617
G01 X16.083 Y20.693
G01 X16.242 Y20.745
G01 X16.407 Y20.771
G01 X16.573 Y20.771
G01 X16.738 Y20.745
G01 X16.897 Y20.693
G01 X17.046 Y20.617
G01 X17.181 Y20.519
G01 X17.299 Y20.401
G01 X17.397 Y20.266
G01 X17.473 Y20.117
G01 X17.524 Y19.959
G01 X17.550 Y19.794
G01 X17.550 Y18.306
G01 X17.524 Y18.141
G01 X17.473 Y17.983
G01 X17.398 Y17.836
G01 X17.398 Y8.801
G01 X17.363 Y8.625
G01 X17.295 Y8.460
G01 X17.195 Y8.311
G01 X16.382 Y7.498
G01 X16.382 Y6.767
G00 Z1.000
G00 X26.542 Y8.473
G01 Z-0.200
G01 X26.542 Y6.767
G01 X26.513 Y6.586
G01 X26.457 Y6.412
G01 X26.374 Y6.249
G01 X26.266 Y6.101
G01 X26.137 Y5.972
G01 X25.989 Y5.864
G01 X25.826 Y5.781
G01 X25.652 Y5.725
G01 X25.471 Y5.696
G01 X25.289 Y5.696
G01 X25.108 Y5.725
G01 X24.934 Y5.781
G01 X24.771 Y5.864
G01 X24.623 Y5.972
G01 X24.494 Y6.101
G01 X24.386 Y6.249
G01 X24.303 Y6.412
G01 X24.247 Y6.586
G01 X24.218 Y6.767
G01 X24.218 Y8.473
G01 X24.247 Y8.654
G01 X24.303 Y8.828
G01 X24.386 Y8.991
G01 X24.494 Y9.139
G01 X24.623 Y9.268
G01 X24.771 Y9.376
G01 X24.934 Y9.459
G01 X25.108 Y9.515
G01 X25.289 Y9.544
G01 X25.471 Y9.544
G01 X25.652 Y9.515
G01 X25.826 Y9.459
G01 X25.989 Y9.376
G01 X26.137 Y9.268
G01 X26.266 Y9.139
G01 X26.374 Y8.991
G01 X26.457 Y8.828
G01 X26.513 Y8.654
G01 X26.542 Y8.473
G00 Z1.000
G00 X36.434 Y13.608
G01 Z-0.200
G01 X38.442 Y15.616
G01 X38.442 Y20.409
G01 X38.477 Y20.585
G01 X38.545 Y20.750
G01 X38.645 Y20.899
G01 X41.692 Y23.946
G01 X41.841 Y24.046
G01 X42.006 Y24.114
G01 X42.182 Y24.149
G01 X43.778 Y24.149
G01 X43.930 Y24.302
G01 X44.108 Y24.430
G01 X44.303 Y24.530
G01 X44.511 Y24.597
G01 X44.727 Y24.632
G01 X46.927 Y24.632
G01 X47.143 Y24.597
G01 X47.351 Y24.530
G01 X47.546 Y24.430
G01 X47.724 Y24.302
G01 X47.878 Y24.147
G01 X48.007 Y23.970
G01 X48.106 Y23.775
G01 X48.174 Y23.567
G01 X48.208 Y23.350
G01 X48.208 Y23.132
G01 X48.174 Y22.915
G01 X48.106 Y22.707
G01 X48.007 Y22.512
G01 X47.878 Y22.335
G01 X47.724 Y22.180
G01 X47.546 Y22.052
G01 X47.351 Y21.952
G01 X47.143 Y21.885
G01 X46.927 Y21.850
G01 X44.727 Y21.850
G01 X44.511 Y21.885
G01 X44.303 Y21.952
G01 X44.108 Y22.052
G01 X43.930 Y22.180
G01 X43.778 Y22.333
G01 X42.647 Y22.333
G01 X40.258 Y19.944
G01 X40.258 Y15.151
G01 X40.223 Y14.975
G01 X40.155 Y14.810
G01 X40.055 Y14.661
G01 X37.389 Y11.995
G01 X37.240 Y11.895
G01 X37.075 Y11.827
G01 X36.899 Y11.792
G01 X33.376 Y11.792
G01 X32.638 Y11.054
G01 X32.638 Y4.991
G01 X32.603 Y4.815
G01 X32.535 Y4.650
G01 X32.435 Y4.501
G01 X32.309 Y4.375
G01 X32.309 Y4.375
G01 X31.039 Y3.105
G01 X30.890 Y3.005
G01 X30.725 Y2.937
G01 X30.549 Y2.902
G01 X12.591 Y2.902
G01 X12.415 Y2.937
G01 X12.250 Y3.005
G01 X12.101 Y3.105
G01 X11.975 Y3.231
G01 X11.875 Y3.380
G01 X11.807 Y3.545
G01 X11.772 Y3.721
G01 X11.772 Y6.131
G01 X11.686 Y6.249
G01 X11.603 Y6.412
G01 X11.547 Y6.586
G01 X11.518 Y6.767
G01 X11.518 Y8.473
G01 X11.547 Y8.654
G01 X11.603 Y8.828
G01 X11.686 Y8.991
G01 X11.772 Y9.109
G01 X11.772 Y13.062
G01 X10.274 Y13.062
G01 X10.262 Y13.040
G01 X10.128 Y12.867
G01 X9.973 Y12.712
G01 X9.800 Y12.578
G01 X9.610 Y12.469
G01 X9.408 Y12.385
G01 X9.197 Y12.329
G01 X8.979 Y12.300
G01 X6.221 Y12.300
G01 X6.004 Y12.329
G01 X5.792 Y12.385
G01 X5.590 Y12.469
G01 X5.400 Y12.578
G01 X5.227 Y12.712
G01 X5.072 Y12.867
G01 X4.938 Y13.040
G01 X4.829 Y13.230
G01 X4.745 Y13.432
G01 X4.689 Y13.643
G01 X4.660 Y13.861
G01 X4.660 Y14.079
G01 X4.689 Y14.296
G01 X4.745 Y14.508
G01 X4.829 Y14.710
G01 X4.938 Y14.900
G01 X5.072 Y15.073
G01 X5.227 Y15.228
G01 X5.400 Y15.362
G01 X5.590 Y15.471
G01 X5.792 Y15.555
G01 X6.004 Y15.611
G01 X6.221 Y15.640
G01 X8.979 Y15.640
G01 X9.197 Y15.611
G01 X9.408 Y15.555
G01 X9.610 Y15.471
G01 X9.800 Y15.362
G01 X9.973 Y15.228
G01 X10.128 Y15.073
G01 X10.262 Y14.900
G01 X10.274 Y14.878
G01 X11.772 Y14.878
G01 X11.772 Y19.944
G01 X4.481 Y27.235
G01 X4.355 Y27.361
G01 X4.255 Y27.510
G01 X4.187 Y27.675
G01 X4.152 Y27.851
G01 X4.152 Y50.889
G01 X4.187 Y51.065
G01 X4.255 Y51.230
G01 X4.355 Y51.379
G01 X7.632 Y54.656
G01 X7.632 Y55.123
G01 X7.962 Y55.453
G01 X7.962 Y60.052
G01 X7.173 Y60.052
G01 X6.843 Y59.722
G01 X5.817 Y59.722
G01 X5.092 Y60.447
G01 X5.092 Y61.473
G01 X5.422 Y61.803
G01 X5.422 Y64.887
G01 X5.296 Y64.907
G01 X5.122 Y64.963
G01 X4.959 Y65.046
G01 X4.811 Y65.154
G01 X4.682 Y65.283
G01 X4.574 Y65.431
G01 X4.491 Y65.594
G01 X4.435 Y65.768
G01 X4.406 Y65.949
G01 X4.406 Y66.131
G01 X4.435 Y66.312
G01 X4.491 Y66.486
G01 X4.574 Y66.649
G01 X4.682 Y66.797
G01 X4.811 Y66.926
G01 X4.959 Y67.034
G01 X5.122 Y67.117
G01 X5.296 Y67.173
G01 X5.477 Y67.202
G01 X7.183 Y67.202
G01 X7.364 Y67.173
G01 X7.538 Y67.117
G01 X7.701 Y67.034
G01 X7.849 Y66.926
G01 X7.978 Y66.797
G01 X8.086 Y66.649
G01 X8.169 Y66.486
G01 X8.225 Y66.312
G01 X8.254 Y66.131
G01 X8.254 Y65.949
G01 X8.225 Y65.768
G01 X8.169 Y65.594
G01 X8.086 Y65.431
G01 X7.978 Y65.283
G01 X7.849 Y65.154
G01 X7.701 Y65.046
G01 X7.538 Y64.963
G01 X7.364 Y64.907
G01 X7.238 Y64.887
G01 X7.238 Y61.868
G01 X8.959 Y61.868
G01 X9.135 Y61.833
G01 X9.300 Y61.765
G01 X9.449 Y61.665
G01 X9.575 Y61.539
G01 X9.675 Y61.390
G01 X9.743 Y61.225
G01 X9.778 Y61.049
G01 X9.778 Y55.453
G01 X10.108 Y55.123
G01 X10.108 Y54.097
G01 X9.383 Y53.372
G01 X8.916 Y53.372
G01 X5.968 Y50.424
G01 X5.968 Y28.316
G01 X13.385 Y20.899
G01 X13.485 Y20.750
G01 X13.553 Y20.585
G01 X13.588 Y20.409
G01 X13.588 Y9.109
G01 X13.674 Y8.991
G01 X13.757 Y8.828
G01 X13.813 Y8.654
G01 X13.842 Y8.473
G01 X13.842 Y6.767
G01 X13.813 Y6.586
G01 X13.757 Y6.412
G01 X13.674 Y6.249
G01 X13.588 Y6.131
G01 X13.588 Y4.718
G01 X21.932 Y4.718
G01 X21.932 Y6.131
G01 X21.846 Y6.249
G01 X21.763 Y6.412
G01 X21.707 Y6.586
G01 X21.678 Y6.767
G01 X21.678 Y8.473
G01 X21.707 Y8.654
G01 X21.763 Y8.828
G01 X21.846 Y8.991
G01 X21.954 Y9.139
G01 X22.083 Y9.268
G01 X22.231 Y9.376
G01 X22.394 Y9.459
G01 X22.568 Y9.515
G01 X22.749 Y9.544
G01 X22.931 Y9.544
G01 X23.112 Y9.515
G01 X23.286 Y9.459
G01 X23.449 Y9.376
G01 X23.597 Y9.268
G01 X23.726 Y9.139
G01 X23.834 Y8.991
G01 X23.917 Y8.828
G01 X23.973 Y8.654
G01 X24.002 Y8.473
G01 X24.002 Y6.767
G01 X23.973 Y6.586
G01 X23.917 Y6.412
G01 X23.834 Y6.249
G01 X23.748 Y6.131
G01 X23.748 Y4.718
G01 X30.084 Y4.718
G01 X30.822 Y5.456
G01 X30.822 Y11.519
G01 X30.857 Y11.695
G01 X30.925 Y11.860
G01 X31.025 Y12.009
G01 X31.151 Y12.135
G01 X32.421 Y13.405
G01 X32.570 Y13.505
G01 X32.735 Y13.573
G01 X32.911 Y13.608
G01 X33.089 Y13.608
G01 X36.434 Y13.608
G00 Z1.000
G00 X44.895 Y27.819
G01 Z-0.200
G01 X42.695 Y27.819
G01 X42.479 Y27.854
G01 X42.271 Y27.921
G01 X42.076 Y28.021
G01 X41.898 Y28.149
G01 X41.744 Y28.304
G01 X41.615 Y28.481
G01 X41.516 Y28.676
G01 X41.448 Y28.884
G01 X41.414 Y29.101
G01 X41.414 Y29.319
G01 X41.448 Y29.536
G01 X41.516 Y29.744
G01 X41.615 Y29.939
G01 X41.744 Y30.116
G01 X41.898 Y30.271
G01 X42.076 Y30.399
G01 X42.271 Y30.499
G01 X42.479 Y30.566
G01 X42.695 Y30.601
G01 X44.895 Y30.601
G01 X45.111 Y30.566
G01 X45.319 Y30.499
G01 X45.514 Y30.399
G01 X45.692 Y30.271
G01 X45.844 Y30.118
G01 X61.834 Y30.118
G01 X67.981 Y36.265
G01 X68.130 Y36.365
G01 X68.295 Y36.433
G01 X68.471 Y36.468
G01 X72.456 Y36.468
G01 X73.027 Y37.039
G01 X73.835 Y37.039
G01 X74.002 Y37.206
G01 X74.002 Y41.318
G01 X73.850 Y41.471
G01 X73.850 Y42.349
G01 X74.471 Y42.970
G01 X75.349 Y42.970
G01 X75.502 Y42.818
G01 X77.558 Y42.818
G01 X77.558 Y57.028
G01 X77.074 Y57.512
G01 X75.502 Y57.512
G01 X75.349 Y57.360
G01 X74.471 Y57.360
G01 X73.850 Y57.981
G01 X73.850 Y58.859
G01 X74.471 Y59.480
G01 X75.349 Y59.480
G01 X75.502 Y59.328
G01 X77.539 Y59.328
G01 X77.715 Y59.293
G01 X77.880 Y59.225
G01 X78.029 Y59.125
G01 X79.045 Y58.109
G01 X79.171 Y57.983
G01 X79.271 Y57.834
G01 X79.339 Y57.669
G01 X79.374 Y57.493
G01 X79.374 Y3.467
G01 X79.339 Y3.291
G01 X79.271 Y3.126
G01 X79.171 Y2.977
G01 X79.045 Y2.851
G01 X79.045 Y2.851
G01 X78.155 Y1.961
G01 X78.029 Y1.835
G01 X77.880 Y1.735
G01 X77.715 Y1.667
G01 X77.539 Y1.632
G01 X65.731 Y1.632
G01 X65.613 Y1.546
G01 X65.450 Y1.463
G01 X65.276 Y1.407
G01 X65.095 Y1.378
G01 X63.389 Y1.378
G01 X63.208 Y1.407
G01 X63.034 Y1.463
G01 X62.871 Y1.546
G01 X62.753 Y1.632
G01 X54.513 Y1.632
G01 X54.452 Y1.628
G01 X54.423 Y1.632
G01 X54.395 Y1.632
G01 X54.335 Y1.644
G01 X54.274 Y1.652
G01 X54.247 Y1.661
G01 X54.219 Y1.667
G01 X54.163 Y1.690
G01 X50.629 Y2.902
G01 X47.219 Y2.902
G01 X47.180 Y2.862
G01 X47.180 Y2.054
G01 X46.313 Y1.188
G01 X45.087 Y1.188
G01 X44.221 Y2.054
G01 X44.221 Y2.862
G01 X44.181 Y2.902
G01 X42.290 Y2.902
G01 X42.290 Y2.321
G01 X42.261 Y2.103
G01 X42.205 Y1.892
G01 X42.121 Y1.690
G01 X42.012 Y1.500
G01 X41.878 Y1.327
G01 X41.723 Y1.172
G01 X41.550 Y1.038
G01 X41.360 Y0.929
G01 X41.158 Y0.845
G01 X40.947 Y0.789
G01 X40.729 Y0.760
G01 X40.511 Y0.760
G01 X40.294 Y0.789
G01 X40.082 Y0.845
G01 X39.880 Y0.929
G01 X39.690 Y1.038
G01 X39.517 Y1.172
G01 X39.362 Y1.327
G01 X39.228 Y1.500
G01 X39.119 Y1.690
G01 X39.035 Y1.892
G01 X38.979 Y2.103
G01 X38.950 Y2.321
G01 X38.950 Y5.079
G01 X38.979 Y5.296
G01 X39.035 Y5.508
G01 X39.119 Y5.710
G01 X39.228 Y5.900
G01 X39.362 Y6.073
G01 X39.517 Y6.228
G01 X39.675 Y6.350
G01 X39.517 Y6.472
G01 X39.362 Y6.627
G01 X39.228 Y6.800
G01 X39.119 Y6.990
G01 X39.035 Y7.192
G01 X38.979 Y7.403
G01 X38.950 Y7.621
G01 X38.950 Y10.379
G01 X38.979 Y10.597
G01 X39.035 Y10.808
G01 X39.119 Y11.010
G01 X39.228 Y11.200
G01 X39.362 Y11.373
G01 X39.517 Y11.528
G01 X39.690 Y11.662
G01 X39.880 Y11.771
G01 X40.082 Y11.855
G01 X40.294 Y11.911
G01 X40.511 Y11.940
G01 X40.729 Y11.940
G01 X40.947 Y11.911
G01 X41.158 Y11.855
G01 X41.360 Y11.771
G01 X41.550 Y11.662
G01 X41.723 Y11.528
G01 X41.878 Y11.373
G01 X42.012 Y11.200
G01 X42.121 Y11.010
G01 X42.205 Y10.808
G01 X42.261 Y10.597
G01 X42.290 Y10.379
G01 X42.290 Y7.621
G01 X42.261 Y7.403
G01 X42.205 Y7.192
G01 X42.121 Y6.990
G01 X42.012 Y6.800
G01 X41.878 Y6.627
G01 X41.723 Y6.472
G01 X41.565 Y6.350
G01 X41.723 Y6.228
G01 X41.878 Y6.073
G01 X42.012 Y5.900
G01 X42.121 Y5.710
G01 X42.205 Y5.508
G01 X42.261 Y5.296
G01 X42.290 Y5.079
G01 X42.290 Y4.718
G01 X44.646 Y4.718
G01 X44.822 Y4.683
G01 X44.987 Y4.615
G01 X45.136 Y4.515
G01 X45.262 Y4.389
G01 X45.505 Y4.146
G01 X45.895 Y4.146
G01 X46.138 Y4.389
G01 X46.264 Y4.515
G01 X46.413 Y4.615
G01 X46.578 Y4.683
G01 X46.754 Y4.718
G01 X50.752 Y4.718
G01 X50.813 Y4.722
G01 X50.841 Y4.718
G01 X50.869 Y4.718
G01 X50.929 Y4.706
G01 X50.990 Y4.698
G01 X51.017 Y4.689
G01 X51.045 Y4.683
G01 X51.101 Y4.660
G01 X54.636 Y3.448
G01 X62.753 Y3.448
G01 X62.871 Y3.534
G01 X63.034 Y3.617
G01 X63.208 Y3.673
G01 X63.389 Y3.702
G01 X65.095 Y3.702
G01 X65.276 Y3.673
G01 X65.450 Y3.617
G01 X65.613 Y3.534
G01 X65.731 Y3.448
G01 X77.074 Y3.448
G01 X77.558 Y3.932
G01 X77.558 Y41.002
G01 X75.818 Y41.002
G01 X75.818 Y36.741
G01 X75.783 Y36.565
G01 X75.715 Y36.400
G01 X75.615 Y36.251
G01 X75.489 Y36.125
G01 X75.120 Y35.755
G01 X75.120 Y34.947
G01 X74.253 Y34.081
G01 X73.027 Y34.081
G01 X72.456 Y34.652
G01 X68.936 Y34.652
G01 X62.789 Y28.505
G01 X62.640 Y28.405
G01 X62.475 Y28.337
G01 X62.299 Y28.302
G01 X45.844 Y28.302
G01 X45.692 Y28.149
G01 X45.514 Y28.021
G01 X45.319 Y27.921
G01 X45.111 Y27.854
G01 X44.895 Y27.819
G00 Z1.000
G00 X46.927 Y33.788
G01 Z-0.200
G01 X44.727 Y33.788
G01 X44.511 Y33.823
G01 X44.303 Y33.890
G01 X44.108 Y33.990
G01 X43.930 Y34.118
G01 X43.778 Y34.271
G01 X39.345 Y34.271
G01 X37.718 Y32.644
G01 X37.718 Y16.421
G01 X37.683 Y16.245
G01 X37.615 Y16.080
G01 X37.515 Y15.931
G01 X36.245 Y14.661
G01 X36.119 Y14.535
G01 X35.970 Y14.435
G01 X35.805 Y14.367
G01 X35.629 Y14.332
G01 X32.911 Y14.332
G01 X32.735 Y14.367
G01 X32.570 Y14.435
G01 X32.421 Y14.535
G01 X31.151 Y15.805
G01 X31.025 Y15.931
G01 X30.925 Y16.080
G01 X30.857 Y16.245
G01 X30.822 Y16.421
G01 X30.822 Y17.836
G01 X30.747 Y17.983
G01 X30.696 Y18.141
G01 X30.670 Y18.306
G01 X30.670 Y19.794
G01 X30.696 Y19.959
G01 X30.747 Y20.117
G01 X30.823 Y20.266
G01 X30.921 Y20.401
G01 X31.039 Y20.519
G01 X31.174 Y20.617
G01 X31.323 Y20.693
G01 X31.482 Y20.745
G01 X31.647 Y20.771
G01 X31.813 Y20.771
G01 X31.978 Y20.745
G01 X32.137 Y20.693
G01 X32.286 Y20.617
G01 X32.421 Y20.519
G01 X32.539 Y20.401
G01 X32.637 Y20.266
G01 X32.713 Y20.117
G01 X32.764 Y19.959
G01 X32.790 Y19.794
G01 X32.790 Y18.306
G01 X32.764 Y18.141
G01 X32.713 Y17.983
G01 X32.638 Y17.836
G01 X32.638 Y16.886
G01 X33.376 Y16.148
G01 X35.164 Y16.148
G01 X35.902 Y16.886
G01 X35.902 Y33.109
G01 X35.937 Y33.285
G01 X36.005 Y33.450
G01 X36.105 Y33.599
G01 X38.390 Y35.884
G01 X38.539 Y35.984
G01 X38.704 Y36.052
G01 X38.880 Y36.087
G01 X43.778 Y36.087
G01 X43.930 Y36.240
G01 X44.108 Y36.368
G01 X44.303 Y36.468
G01 X44.511 Y36.535
G01 X44.727 Y36.570
G01 X46.927 Y36.570
G01 X47.143 Y36.535
G01 X47.351 Y36.468
G01 X47.546 Y36.368
G01 X47.724 Y36.240
G01 X47.878 Y36.085
G01 X48.007 Y35.908
G01 X48.106 Y35.713
G01 X48.174 Y35.505
G01 X48.208 Y35.288
G01 X48.208 Y35.070
G01 X48.174 Y34.853
G01 X48.106 Y34.645
G01 X48.007 Y34.450
G01 X47.878 Y34.273
G01 X47.724 Y34.118
G01 X47.546 Y33.990
G01 X47.351 Y33.890
G01 X47.143 Y33.823
G01 X46.927 Y33.788
G00 Z1.000
G00 X59.119 Y33.788
G01 Z-0.200
G01 X56.919 Y33.788
G01 X56.703 Y33.823
G01 X56.495 Y33.890
G01 X56.300 Y33.990
G01 X56.122 Y34.118
G01 X55.968 Y34.273
G01 X55.839 Y34.450
G01 X55.740 Y34.645
G01 X55.672 Y34.853
G01 X55.638 Y35.070
G01 X55.638 Y35.288
G01 X55.672 Y35.505
G01 X55.740 Y35.713
G01 X55.839 Y35.908
G01 X55.968 Y36.085
G01 X56.122 Y36.240
G01 X56.300 Y36.368
G01 X56.495 Y36.468
G01 X56.703 Y36.535
G01 X56.919 Y36.570
G01 X59.119 Y36.570
G01 X59.335 Y36.535
G01 X59.543 Y36.468
G01 X59.738 Y36.368
G01 X59.916 Y36.240
G01 X60.070 Y36.085
G01 X60.199 Y35.908
G01 X60.298 Y35.713
G01 X60.366 Y35.505
G01 X60.400 Y35.288
G01 X60.400 Y35.070
G01 X60.366 Y34.853
G01 X60.298 Y34.645
G01 X60.199 Y34.450
G01 X60.070 Y34.273
G01 X59.916 Y34.118
G01 X59.738 Y33.990
G01 X59.543 Y33.890
G01 X59.335 Y33.823
G01 X59.119 Y33.788
G00 Z1.000
G00 X63.479 Y38.970
G01 Z-0.200
G01 X60.721 Y38.970
G01 X60.504 Y38.999
G01 X60.292 Y39.055
G01 X60.090 Y39.139
G01 X59.900 Y39.248
G01 X59.727 Y39.382
G01 X59.572 Y39.537
G01 X59.438 Y39.710
G01 X59.329 Y39.900
G01 X59.245 Y40.102
G01 X59.189 Y40.313
G01 X59.160 Y40.531
G01 X59.160 Y40.749
G01 X59.189 Y40.967
G01 X59.245 Y41.178
G01 X59.329 Y41.380
G01 X59.438 Y41.570
G01 X59.572 Y41.743
G01 X59.727 Y41.898
G01 X59.900 Y42.032
G01 X60.032 Y42.108
G01 X60.032 Y46.147
G01 X59.996 Y46.183
G01 X59.881 Y46.341
G01 X59.793 Y46.515
G01 X59.732 Y46.700
G01 X59.702 Y46.893
G01 X59.702 Y47.087
G01 X59.732 Y47.280
G01 X59.793 Y47.465
G01 X59.881 Y47.639
G01 X59.996 Y47.797
G01 X60.133 Y47.934
G01 X60.291 Y48.049
G01 X60.465 Y48.137
G01 X60.650 Y48.198
G01 X60.843 Y48.228
G01 X62.714 Y48.228
G01 X62.906 Y48.198
G01 X63.092 Y48.137
G01 X63.265 Y48.049
G01 X63.423 Y47.934
G01 X63.561 Y47.797
G01 X63.675 Y47.639
G01 X63.764 Y47.465
G01 X63.824 Y47.280
G01 X63.855 Y47.087
G01 X63.855 Y46.893
G01 X63.824 Y46.700
G01 X63.764 Y46.515
G01 X63.675 Y46.341
G01 X63.561 Y46.183
G01 X63.423 Y46.046
G01 X63.265 Y45.931
G01 X63.092 Y45.843
G01 X62.906 Y45.782
G01 X62.714 Y45.752
G01 X61.848 Y45.752
G01 X61.848 Y42.310
G01 X63.479 Y42.310
G01 X63.697 Y42.281
G01 X63.908 Y42.225
G01 X64.110 Y42.141
G01 X64.300 Y42.032
G01 X64.473 Y41.898
G01 X64.628 Y41.743
G01 X64.750 Y41.585
G01 X64.872 Y41.743
G01 X65.027 Y41.898
G01 X65.200 Y42.032
G01 X65.390 Y42.141
G01 X65.592 Y42.225
G01 X65.804 Y42.281
G01 X66.021 Y42.310
G01 X68.779 Y42.310
G01 X68.997 Y42.281
G01 X69.001 Y42.280
G01 X69.025 Y42.340
G01 X69.125 Y42.489
G01 X69.251 Y42.615
G01 X69.400 Y42.715
G01 X69.565 Y42.783
G01 X69.741 Y42.818
G01 X71.778 Y42.818
G01 X71.931 Y42.970
G01 X72.809 Y42.970
G01 X73.430 Y42.349
G01 X73.430 Y41.471
G01 X72.809 Y40.850
G01 X71.931 Y40.850
G01 X71.778 Y41.002
G01 X70.738 Y41.002
G01 X70.738 Y40.551
G01 X70.703 Y40.375
G01 X70.635 Y40.210
G01 X70.535 Y40.061
G01 X70.409 Y39.935
G01 X70.260 Y39.835
G01 X70.095 Y39.767
G01 X70.094 Y39.767
G01 X70.062 Y39.710
G01 X69.928 Y39.537
G01 X69.773 Y39.382
G01 X69.600 Y39.248
G01 X69.410 Y39.139
G01 X69.208 Y39.055
G01 X68.997 Y38.999
G01 X68.779 Y38.970
G01 X66.021 Y38.970
G01 X65.804 Y38.999
G01 X65.592 Y39.055
G01 X65.390 Y39.139
G01 X65.200 Y39.248
G01 X65.027 Y39.382
G01 X64.872 Y39.537
G01 X64.750 Y39.695
G01 X64.628 Y39.537
G01 X64.473 Y39.382
G01 X64.300 Y39.248
G01 X64.110 Y39.139
G01 X63.908 Y39.055
G01 X63.697 Y38.999
G01 X63.479 Y38.970
G00 Z1.000
G00 X62.714 Y48.292
G01 Z-0.200
G01 X60.843 Y48.292
G01 X60.650 Y48.322
G01 X60.465 Y48.383
G01 X60.291 Y48.471
G01 X60.133 Y48.586
G01 X59.996 Y48.723
G01 X59.881 Y48.881
G01 X59.793 Y49.055
G01 X59.732 Y49.240
G01 X59.702 Y49.433
G01 X59.702 Y49.627
G01 X59.732 Y49.820
G01 X59.793 Y50.005
G01 X59.881 Y50.179
G01 X59.996 Y50.337
G01 X60.133 Y50.474
G01 X60.291 Y50.589
G01 X60.465 Y50.677
G01 X60.650 Y50.738
G01 X60.843 Y50.768
G01 X62.714 Y50.768
G01 X62.906 Y50.738
G01 X63.092 Y50.677
G01 X63.265 Y50.589
G01 X63.423 Y50.474
G01 X63.561 Y50.337
G01 X63.675 Y50.179
G01 X63.764 Y50.005
G01 X63.824 Y49.820
G01 X63.855 Y49.627
G01 X63.855 Y49.433
G01 X63.824 Y49.240
G01 X63.764 Y49.055
G01 X63.675 Y48.881
G01 X63.561 Y48.723
G01 X63.423 Y48.586
G01 X63.265 Y48.471
G01 X63.092 Y48.383
G01 X62.906 Y48.322
G01 X62.714 Y48.292
G00 Z1.000
G00 X62.714 Y50.832
G01 Z-0.200
G01 X60.843 Y50.832
G01 X60.650 Y50.862
G01 X60.465 Y50.923
G01 X60.291 Y51.011
G01 X60.133 Y51.126
G01 X59.996 Y51.263
G01 X59.881 Y51.421
G01 X59.793 Y51.595
G01 X59.732 Y51.780
G01 X59.702 Y51.973
G01 X59.702 Y52.167
G01 X59.732 Y52.360
G01 X59.793 Y52.545
G01 X59.881 Y52.719
G01 X59.996 Y52.877
G01 X60.133 Y53.014
G01 X60.291 Y53.129
G01 X60.465 Y53.217
G01 X60.650 Y53.278
G01 X60.843 Y53.308
G01 X62.714 Y53.308
G01 X62.906 Y53.278
G01 X63.092 Y53.217
G01 X63.265 Y53.129
G01 X63.423 Y53.014
G01 X63.459 Y52.978
G01 X63.569 Y52.978
G01 X63.745 Y52.943
G01 X63.910 Y52.875
G01 X64.059 Y52.775
G01 X66.599 Y50.235
G01 X66.599 Y50.235
G01 X66.725 Y50.109
G01 X66.825 Y49.960
G01 X66.893 Y49.795
G01 X66.928 Y49.619
G01 X66.928 Y49.103
G01 X67.258 Y48.773
G01 X67.258 Y47.747
G01 X66.533 Y47.022
G01 X65.507 Y47.022
G01 X64.782 Y47.747
G01 X64.782 Y48.773
G01 X65.112 Y49.103
G01 X65.112 Y49.154
G01 X63.258 Y51.007
G01 X63.092 Y50.923
G01 X62.906 Y50.862
G01 X62.714 Y50.832
G00 Z1.000
G00 X69.829 Y51.670
G01 Z-0.200
G01 X67.071 Y51.670
G01 X66.854 Y51.699
G01 X66.642 Y51.755
G01 X66.440 Y51.839
G01 X66.250 Y51.948
G01 X66.077 Y52.082
G01 X65.922 Y52.237
G01 X65.788 Y52.410
G01 X65.679 Y52.600
G01 X65.595 Y52.802
G01 X65.539 Y53.013
G01 X65.510 Y53.231
G01 X65.510 Y53.449
G01 X65.539 Y53.666
G01 X65.595 Y53.878
G01 X65.679 Y54.080
G01 X65.788 Y54.270
G01 X65.922 Y54.443
G01 X66.077 Y54.598
G01 X66.250 Y54.732
G01 X66.382 Y54.808
G01 X66.382 Y56.242
G01 X63.459 Y56.242
G01 X63.423 Y56.206
G01 X63.265 Y56.091
G01 X63.092 Y56.003
G01 X62.906 Y55.942
G01 X62.714 Y55.912
G01 X60.843 Y55.912
G01 X60.650 Y55.942
G01 X60.465 Y56.003
G01 X60.291 Y56.091
G01 X60.133 Y56.206
G01 X59.996 Y56.343
G01 X59.881 Y56.501
G01 X59.793 Y56.675
G01 X59.732 Y56.860
G01 X59.702 Y57.053
G01 X59.702 Y57.247
G01 X59.732 Y57.440
G01 X59.793 Y57.625
G01 X59.881 Y57.799
G01 X59.996 Y57.957
G01 X60.133 Y58.094
G01 X60.291 Y58.209
G01 X60.465 Y58.297
G01 X60.650 Y58.358
G01 X60.843 Y58.388
G01 X62.714 Y58.388
G01 X62.906 Y58.358
G01 X63.092 Y58.297
G01 X63.265 Y58.209
G01 X63.423 Y58.094
G01 X63.459 Y58.058
G01 X66.914 Y58.058
G01 X67.981 Y59.125
G01 X68.130 Y59.225
G01 X68.295 Y59.293
G01 X68.471 Y59.328
G01 X71.778 Y59.328
G01 X71.931 Y59.480
G01 X72.809 Y59.480
G01 X73.430 Y58.859
G01 X73.430 Y57.981
G01 X72.809 Y57.360
G01 X71.931 Y57.360
G01 X71.778 Y57.512
G01 X68.936 Y57.512
G01 X68.198 Y56.774
G01 X68.198 Y55.010
G01 X69.829 Y55.010
G01 X70.047 Y54.981
G01 X70.258 Y54.925
G01 X70.460 Y54.841
G01 X70.650 Y54.732
G01 X70.823 Y54.598
G01 X70.978 Y54.443
G01 X71.100 Y54.285
G01 X71.222 Y54.443
G01 X71.377 Y54.598
G01 X71.550 Y54.732
G01 X71.740 Y54.841
G01 X71.942 Y54.925
G01 X72.154 Y54.981
G01 X72.371 Y55.010
G01 X75.129 Y55.010
G01 X75.347 Y54.981
G01 X75.558 Y54.925
G01 X75.760 Y54.841
G01 X75.950 Y54.732
G01 X76.123 Y54.598
G01 X76.278 Y54.443
G01 X76.412 Y54.270
G01 X76.521 Y54.080
G01 X76.605 Y53.878
G01 X76.661 Y53.666
G01 X76.690 Y53.449
G01 X76.690 Y53.231
G01 X76.661 Y53.013
G01 X76.605 Y52.802
G01 X76.521 Y52.600
G01 X76.412 Y52.410
G01 X76.278 Y52.237
G01 X76.123 Y52.082
G01 X75.950 Y51.948
G01 X75.760 Y51.839
G01 X75.558 Y51.755
G01 X75.347 Y51.699
G01 X75.129 Y51.670
G01 X72.371 Y51.670
G01 X72.154 Y51.699
G01 X71.942 Y51.755
G01 X71.740 Y51.839
G01 X71.550 Y51.948
G01 X71.377 Y52.082
G01 X71.222 Y52.237
G01 X71.100 Y52.395
G01 X70.978 Y52.237
G01 X70.823 Y52.082
G01 X70.650 Y51.948
G01 X70.460 Y51.839
G01 X70.258 Y51.755
G01 X70.047 Y51.699
G01 X69.829 Y51.670
G00 Z1.000
G00 X72.580 Y59.886
G01 Z-0.200
G01 X72.580 Y60.764
G01 X72.732 Y60.917
G01 X72.732 Y61.854
G01 X72.324 Y62.262
G01 X71.857 Y62.262
G01 X71.132 Y62.987
G01 X71.132 Y64.013
G01 X71.857 Y64.738
G01 X72.883 Y64.738
G01 X73.608 Y64.013
G01 X73.608 Y63.546
G01 X74.219 Y62.935
G01 X74.345 Y62.809
G01 X74.445 Y62.660
G01 X74.513 Y62.495
G01 X74.548 Y62.319
G01 X74.548 Y60.917
G01 X74.700 Y60.764
G01 X74.700 Y59.886
G01 X74.079 Y59.265
G01 X73.201 Y59.265
G01 X72.580 Y59.886
G00 Z1.000
G00 X62.714 Y60.992
G01 Z-0.200
G01 X60.843 Y60.992
G01 X60.650 Y61.022
G01 X60.465 Y61.083
G01 X60.291 Y61.171
G01 X60.133 Y61.286
G01 X59.996 Y61.423
G01 X59.881 Y61.581
G01 X59.793 Y61.755
G01 X59.732 Y61.940
G01 X59.702 Y62.133
G01 X59.702 Y62.327
G01 X59.732 Y62.520
G01 X59.793 Y62.705
G01 X59.881 Y62.879
G01 X59.996 Y63.037
G01 X60.133 Y63.174
G01 X60.291 Y63.289
G01 X60.465 Y63.377
G01 X60.650 Y63.438
G01 X60.843 Y63.468
G01 X60.894 Y63.468
G01 X61.631 Y64.205
G01 X61.780 Y64.305
G01 X61.945 Y64.373
G01 X62.121 Y64.408
G01 X63.907 Y64.408
G01 X64.237 Y64.738
G01 X65.263 Y64.738
G01 X65.988 Y64.013
G01 X65.988 Y62.987
G01 X65.263 Y62.262
G01 X64.237 Y62.262
G01 X63.907 Y62.592
G01 X63.801 Y62.592
G01 X63.824 Y62.520
G01 X63.855 Y62.327
G01 X63.855 Y62.133
G01 X63.824 Y61.940
G01 X63.764 Y61.755
G01 X63.675 Y61.581
G01 X63.561 Y61.423
G01 X63.423 Y61.286
G01 X63.265 Y61.171
G01 X63.092 Y61.083
G01 X62.906 Y61.022
G01 X62.714 Y60.992
G00 Z1.000
G00 X62.714 Y58.452
G01 Z-0.200
G01 X60.843 Y58.452
G01 X60.650 Y58.482
G01 X60.465 Y58.543
G01 X60.291 Y58.631
G01 X60.133 Y58.746
G01 X59.996 Y58.883
G01 X59.881 Y59.041
G01 X59.793 Y59.215
G01 X59.732 Y59.400
G01 X59.702 Y59.593
G01 X59.702 Y59.787
G01 X59.732 Y59.980
G01 X59.793 Y60.165
G01 X59.881 Y60.339
G01 X59.996 Y60.497
G01 X60.133 Y60.634
G01 X60.291 Y60.749
G01 X60.465 Y60.837
G01 X60.650 Y60.898
G01 X60.843 Y60.928
G01 X62.714 Y60.928
G01 X62.906 Y60.898
G01 X63.092 Y60.837
G01 X63.265 Y60.749
G01 X63.423 Y60.634
G01 X63.561 Y60.497
G01 X63.675 Y60.339
G01 X63.764 Y60.165
G01 X63.824 Y59.980
G01 X63.855 Y59.787
G01 X63.855 Y59.593
G01 X63.824 Y59.400
G01 X63.764 Y59.215
G01 X63.675 Y59.041
G01 X63.561 Y58.883
G01 X63.423 Y58.746
G01 X63.265 Y58.631
G01 X63.092 Y58.543
G01 X62.906 Y58.482
G01 X62.714 Y58.452
G00 Z1.000
G00 X51.546 Y63.468
G01 Z-0.200
G01 X53.417 Y63.468
G01 X53.610 Y63.438
G01 X53.795 Y63.377
G01 X53.969 Y63.289
G01 X54.127 Y63.174
G01 X54.264 Y63.037
G01 X54.379 Y62.879
G01 X54.467 Y62.705
G01 X54.528 Y62.520
G01 X54.558 Y62.327
G01 X54.558 Y62.133
G01 X54.528 Y61.940
G01 X54.467 Y61.755
G01 X54.379 Y61.581
G01 X54.264 Y61.423
G01 X54.127 Y61.286
G01 X53.969 Y61.171
G01 X53.795 Y61.083
G01 X53.610 Y61.022
G01 X53.417 Y60.992
G01 X51.546 Y60.992
G01 X51.354 Y61.022
G01 X51.168 Y61.083
G01 X50.995 Y61.171
G01 X50.837 Y61.286
G01 X50.699 Y61.423
G01 X50.585 Y61.581
G01 X50.496 Y61.755
G01 X50.436 Y61.940
G01 X50.405 Y62.133
G01 X50.405 Y62.327
G01 X50.436 Y62.520
G01 X50.496 Y62.705
G01 X50.585 Y62.879
G01 X50.699 Y63.037
G01 X50.837 Y63.174
G01 X50.995 Y63.289
G01 X51.168 Y63.377
G01 X51.354 Y63.438
G01 X51.546 Y63.468
G00 Z1.000
G00 X45.283 Y64.878
G01 Z-0.200
G01 X43.577 Y64.878
G01 X43.396 Y64.907
G01 X43.222 Y64.963
G01 X43.059 Y65.046
G01 X42.911 Y65.154
G01 X42.782 Y65.283
G01 X42.674 Y65.431
G01 X42.591 Y65.594
G01 X42.535 Y65.768
G01 X42.506 Y65.949
G01 X42.506 Y66.131
G01 X42.535 Y66.312
G01 X42.591 Y66.486
G01 X42.628 Y66.558
G01 X41.514 Y67.672
G01 X38.491 Y67.672
G01 X38.455 Y67.636
G01 X38.297 Y67.521
G01 X38.124 Y67.433
G01 X37.938 Y67.372
G01 X37.746 Y67.342
G01 X35.874 Y67.342
G01 X35.682 Y67.372
G01 X35.496 Y67.433
G01 X35.323 Y67.521
G01 X35.165 Y67.636
G01 X35.027 Y67.773
G01 X34.913 Y67.931
G01 X34.824 Y68.105
G01 X34.764 Y68.290
G01 X34.734 Y68.483
G01 X34.734 Y68.677
G01 X34.764 Y68.870
G01 X34.824 Y69.055
G01 X34.913 Y69.229
G01 X35.027 Y69.387
G01 X35.165 Y69.524
G01 X35.323 Y69.639
G01 X35.496 Y69.727
G01 X35.682 Y69.788
G01 X35.874 Y69.818
G01 X37.746 Y69.818
G01 X37.938 Y69.788
G01 X38.124 Y69.727
G01 X38.297 Y69.639
G01 X38.455 Y69.524
G01 X38.491 Y69.488
G01 X41.979 Y69.488
G01 X42.155 Y69.453
G01 X42.320 Y69.385
G01 X42.469 Y69.285
G01 X42.595 Y69.159
G01 X44.552 Y67.202
G01 X45.283 Y67.202
G01 X45.464 Y67.173
G01 X45.638 Y67.117
G01 X45.801 Y67.034
G01 X45.949 Y66.926
G01 X46.078 Y66.797
G01 X46.186 Y66.649
G01 X46.269 Y66.486
G01 X46.325 Y66.312
G01 X46.354 Y66.131
G01 X46.354 Y65.949
G01 X46.325 Y65.768
G01 X46.269 Y65.594
G01 X46.186 Y65.431
G01 X46.078 Y65.283
G01 X45.949 Y65.154
G01 X45.801 Y65.046
G01 X45.638 Y64.963
G01 X45.464 Y64.907
G01 X45.283 Y64.878
G00 Z1.000
G00 X45.283 Y59.798
G01 Z-0.200
G01 X43.577 Y59.798
G01 X43.396 Y59.827
G01 X43.332 Y59.848
G01 X41.325 Y57.841
G01 X41.199 Y57.715
G01 X41.050 Y57.615
G01 X40.885 Y57.547
G01 X40.709 Y57.512
G01 X38.491 Y57.512
G01 X38.455 Y57.476
G01 X38.297 Y57.361
G01 X38.124 Y57.273
G01 X37.938 Y57.212
G01 X37.746 Y57.182
G01 X35.874 Y57.182
G01 X35.682 Y57.212
G01 X35.496 Y57.273
G01 X35.323 Y57.361
G01 X35.165 Y57.476
G01 X35.027 Y57.613
G01 X34.913 Y57.771
G01 X34.824 Y57.945
G01 X34.764 Y58.130
G01 X34.734 Y58.323
G01 X34.734 Y58.517
G01 X34.764 Y58.710
G01 X34.824 Y58.895
G01 X34.913 Y59.069
G01 X35.027 Y59.227
G01 X35.165 Y59.364
G01 X35.323 Y59.479
G01 X35.496 Y59.567
G01 X35.682 Y59.628
G01 X35.874 Y59.658
G01 X37.746 Y59.658
G01 X37.938 Y59.628
G01 X38.124 Y59.567
G01 X38.297 Y59.479
G01 X38.455 Y59.364
G01 X38.491 Y59.328
G01 X40.244 Y59.328
G01 X42.581 Y61.665
G01 X42.730 Y61.765
G01 X42.895 Y61.833
G01 X42.898 Y61.834
G01 X42.911 Y61.846
G01 X43.059 Y61.954
G01 X43.222 Y62.037
G01 X43.396 Y62.093
G01 X43.577 Y62.122
G01 X45.283 Y62.122
G01 X45.464 Y62.093
G01 X45.638 Y62.037
G01 X45.801 Y61.954
G01 X45.949 Y61.846
G01 X46.078 Y61.717
G01 X46.186 Y61.569
G01 X46.269 Y61.406
G01 X46.325 Y61.232
G01 X46.354 Y61.051
G01 X46.354 Y60.869
G01 X46.325 Y60.688
G01 X46.269 Y60.514
G01 X46.186 Y60.351
G01 X46.078 Y60.203
G01 X45.949 Y60.074
G01 X45.801 Y59.966
G01 X45.638 Y59.883
G01 X45.464 Y59.827
G01 X45.283 Y59.798
G00 Z1.000
G00 X37.746 Y59.722
G01 Z-0.200
G01 X35.874 Y59.722
G01 X35.682 Y59.752
G01 X35.496 Y59.813
G01 X35.323 Y59.901
G01 X35.165 Y60.016
G01 X35.027 Y60.153
G01 X34.934 Y60.282
G01 X34.835 Y60.381
G01 X34.735 Y60.530
G01 X34.667 Y60.695
G01 X34.632 Y60.871
G01 X34.632 Y61.049
G01 X34.667 Y61.225
G01 X34.735 Y61.390
G01 X34.835 Y61.539
G01 X34.934 Y61.638
G01 X35.027 Y61.767
G01 X35.165 Y61.904
G01 X35.323 Y62.019
G01 X35.496 Y62.107
G01 X35.682 Y62.168
G01 X35.874 Y62.198
G01 X37.746 Y62.198
G01 X37.938 Y62.168
G01 X38.124 Y62.107
G01 X38.297 Y62.019
G01 X38.455 Y61.904
G01 X38.491 Y61.868
G01 X38.974 Y61.868
G01 X41.311 Y64.205
G01 X41.460 Y64.305
G01 X41.625 Y64.373
G01 X41.801 Y64.408
G01 X42.941 Y64.408
G01 X43.059 Y64.494
G01 X43.222 Y64.577
G01 X43.396 Y64.633
G01 X43.577 Y64.662
G01 X45.283 Y64.662
G01 X45.464 Y64.633
G01 X45.638 Y64.577
G01 X45.801 Y64.494
G01 X45.949 Y64.386
G01 X46.078 Y64.257
G01 X46.186 Y64.109
G01 X46.269 Y63.946
G01 X46.325 Y63.772
G01 X46.354 Y63.591
G01 X46.354 Y63.409
G01 X46.325 Y63.228
G01 X46.269 Y63.054
G01 X46.186 Y62.891
G01 X46.078 Y62.743
G01 X45.949 Y62.614
G01 X45.801 Y62.506
G01 X45.638 Y62.423
G01 X45.464 Y62.367
G01 X45.283 Y62.338
G01 X43.577 Y62.338
G01 X43.396 Y62.367
G01 X43.222 Y62.423
G01 X43.059 Y62.506
G01 X42.941 Y62.592
G01 X42.266 Y62.592
G01 X40.055 Y60.381
G01 X39.929 Y60.255
G01 X39.780 Y60.155
G01 X39.615 Y60.087
G01 X39.439 Y60.052
G01 X38.491 Y60.052
G01 X38.455 Y60.016
G01 X38.297 Y59.901
G01 X38.124 Y59.813
G01 X37.938 Y59.752
G01 X37.746 Y59.722
G00 Z1.000
G00 X37.746 Y54.642
G01 Z-0.200
G01 X35.874 Y54.642
G01 X35.682 Y54.672
G01 X35.496 Y54.733
G01 X35.323 Y54.821
G01 X35.165 Y54.936
G01 X35.027 Y55.073
G01 X34.913 Y55.231
G01 X34.824 Y55.405
G01 X34.764 Y55.590
G01 X34.734 Y55.783
G01 X34.734 Y55.977
G01 X34.764 Y56.170
G01 X34.824 Y56.355
G01 X34.913 Y56.529
G01 X35.027 Y56.687
G01 X35.165 Y56.824
G01 X35.323 Y56.939
G01 X35.496 Y57.027
G01 X35.682 Y57.088
G01 X35.874 Y57.118
G01 X37.746 Y57.118
G01 X37.938 Y57.088
G01 X38.124 Y57.027
G01 X38.297 Y56.939
G01 X38.455 Y56.824
G01 X38.593 Y56.687
G01 X38.707 Y56.529
G01 X38.796 Y56.355
G01 X38.856 Y56.170
G01 X38.886 Y55.977
G01 X38.886 Y55.783
G01 X38.856 Y55.590
G01 X38.796 Y55.405
G01 X38.707 Y55.231
G01 X38.593 Y55.073
G01 X38.455 Y54.936
G01 X38.297 Y54.821
G01 X38.124 Y54.733
G01 X37.938 Y54.672
G01 X37.746 Y54.642
G00 Z1.000
G00 X37.746 Y49.562
G01 Z-0.200
G01 X35.874 Y49.562
G01 X35.682 Y49.592
G01 X35.496 Y49.653
G01 X35.323 Y49.741
G01 X35.165 Y49.856
G01 X35.027 Y49.993
G01 X34.913 Y50.151
G01 X34.824 Y50.325
G01 X34.764 Y50.510
G01 X34.734 Y50.703
G01 X34.734 Y50.897
G01 X34.764 Y51.090
G01 X34.824 Y51.275
G01 X34.913 Y51.449
G01 X35.027 Y51.607
G01 X35.165 Y51.744
G01 X35.323 Y51.859
G01 X35.496 Y51.947
G01 X35.682 Y52.008
G01 X35.874 Y52.038
G01 X37.746 Y52.038
G01 X37.938 Y52.008
G01 X38.124 Y51.947
G01 X38.297 Y51.859
G01 X38.455 Y51.744
G01 X38.491 Y51.708
G01 X42.941 Y51.708
G01 X43.059 Y51.794
G01 X43.222 Y51.877
G01 X43.396 Y51.933
G01 X43.577 Y51.962
G01 X45.283 Y51.962
G01 X45.464 Y51.933
G01 X45.638 Y51.877
G01 X45.801 Y51.794
G01 X45.949 Y51.686
G01 X46.078 Y51.557
G01 X46.186 Y51.409
G01 X46.269 Y51.246
G01 X46.325 Y51.072
G01 X46.354 Y50.891
G01 X46.354 Y50.709
G01 X46.325 Y50.528
G01 X46.269 Y50.354
G01 X46.186 Y50.191
G01 X46.078 Y50.043
G01 X45.949 Y49.914
G01 X45.801 Y49.806
G01 X45.638 Y49.723
G01 X45.464 Y49.667
G01 X45.283 Y49.638
G01 X43.577 Y49.638
G01 X43.396 Y49.667
G01 X43.222 Y49.723
G01 X43.059 Y49.806
G01 X42.941 Y49.892
G01 X38.491 Y49.892
G01 X38.455 Y49.856
G01 X38.297 Y49.741
G01 X38.124 Y49.653
G01 X37.938 Y49.592
G01 X37.746 Y49.562
G00 Z1.000
G00 X35.572 Y43.937
G01 Z-0.200
G01 X35.572 Y44.963
G01 X36.297 Y45.688
G01 X37.323 Y45.688
G01 X37.653 Y45.358
G01 X46.594 Y45.358
G01 X47.332 Y46.096
G01 X47.332 Y54.699
G01 X47.367 Y54.875
G01 X47.435 Y55.040
G01 X47.535 Y55.189
G01 X50.075 Y57.729
G01 X50.075 Y57.729
G01 X50.201 Y57.855
G01 X50.350 Y57.955
G01 X50.515 Y58.023
G01 X50.691 Y58.058
G01 X50.801 Y58.058
G01 X50.837 Y58.094
G01 X50.995 Y58.209
G01 X51.168 Y58.297
G01 X51.354 Y58.358
G01 X51.546 Y58.388
G01 X53.417 Y58.388
G01 X53.610 Y58.358
G01 X53.795 Y58.297
G01 X53.969 Y58.209
G01 X54.127 Y58.094
G01 X54.264 Y57.957
G01 X54.379 Y57.799
G01 X54.467 Y57.625
G01 X54.528 Y57.440
G01 X54.558 Y57.247
G01 X54.558 Y57.053
G01 X54.528 Y56.860
G01 X54.467 Y56.675
G01 X54.379 Y56.501
G01 X54.264 Y56.343
G01 X54.127 Y56.206
G01 X53.969 Y56.091
G01 X53.795 Y56.003
G01 X53.610 Y55.942
G01 X53.417 Y55.912
G01 X51.546 Y55.912
G01 X51.354 Y55.942
G01 X51.168 Y56.003
G01 X51.002 Y56.087
G01 X49.148 Y54.234
G01 X49.148 Y45.631
G01 X49.113 Y45.455
G01 X49.045 Y45.290
G01 X48.945 Y45.141
G01 X47.675 Y43.871
G01 X47.675 Y43.871
G01 X47.549 Y43.745
G01 X47.400 Y43.645
G01 X47.235 Y43.577
G01 X47.059 Y43.542
G01 X37.653 Y43.542
G01 X37.323 Y43.212
G01 X36.297 Y43.212
G01 X35.572 Y43.937
G00 Z1.000
G00 X45.283 Y47.098
G01 Z-0.200
G01 X43.577 Y47.098
G01 X43.396 Y47.127
G01 X43.222 Y47.183
G01 X43.059 Y47.266
G01 X42.941 Y47.352
G01 X38.491 Y47.352
G01 X38.455 Y47.316
G01 X38.297 Y47.201
G01 X38.124 Y47.113
G01 X37.938 Y47.052
G01 X37.746 Y47.022
G01 X35.874 Y47.022
G01 X35.682 Y47.052
G01 X35.496 Y47.113
G01 X35.323 Y47.201
G01 X35.165 Y47.316
G01 X35.027 Y47.453
G01 X34.913 Y47.611
G01 X34.824 Y47.785
G01 X34.764 Y47.970
G01 X34.734 Y48.163
G01 X34.734 Y48.357
G01 X34.764 Y48.550
G01 X34.824 Y48.735
G01 X34.913 Y48.909
G01 X35.027 Y49.067
G01 X35.165 Y49.204
G01 X35.323 Y49.319
G01 X35.496 Y49.407
G01 X35.682 Y49.468
G01 X35.874 Y49.498
G01 X37.746 Y49.498
G01 X37.938 Y49.468
G01 X38.124 Y49.407
G01 X38.297 Y49.319
G01 X38.455 Y49.204
G01 X38.491 Y49.168
G01 X42.941 Y49.168
G01 X43.059 Y49.254
G01 X43.222 Y49.337
G01 X43.396 Y49.393
G01 X43.577 Y49.422
G01 X45.283 Y49.422
G01 X45.464 Y49.393
G01 X45.638 Y49.337
G01 X45.801 Y49.254
G01 X45.949 Y49.146
G01 X46.078 Y49.017
G01 X46.186 Y48.869
G01 X46.269 Y48.706
G01 X46.325 Y48.532
G01 X46.354 Y48.351
G01 X46.354 Y48.169
G01 X46.325 Y47.988
G01 X46.269 Y47.814
G01 X46.186 Y47.651
G01 X46.078 Y47.503
G01 X45.949 Y47.374
G01 X45.801 Y47.266
G01 X45.638 Y47.183
G01 X45.464 Y47.127
G01 X45.283 Y47.098
G00 Z1.000
G00 X45.283 Y52.178
G01 Z-0.200
G01 X43.577 Y52.178
G01 X43.396 Y52.207
G01 X43.222 Y52.263
G01 X43.059 Y52.346
G01 X42.941 Y52.432
G01 X38.491 Y52.432
G01 X38.455 Y52.396
G01 X38.297 Y52.281
G01 X38.124 Y52.193
G01 X37.938 Y52.132
G01 X37.746 Y52.102
G01 X35.874 Y52.102
G01 X35.682 Y52.132
G01 X35.496 Y52.193
G01 X35.323 Y52.281
G01 X35.165 Y52.396
G01 X35.027 Y52.533
G01 X34.913 Y52.691
G01 X34.824 Y52.865
G01 X34.764 Y53.050
G01 X34.734 Y53.243
G01 X34.734 Y53.437
G01 X34.764 Y53.630
G01 X34.824 Y53.815
G01 X34.913 Y53.989
G01 X35.027 Y54.147
G01 X35.165 Y54.284
G01 X35.323 Y54.399
G01 X35.496 Y54.487
G01 X35.682 Y54.548
G01 X35.874 Y54.578
G01 X37.746 Y54.578
G01 X37.938 Y54.548
G01 X38.124 Y54.487
G01 X38.297 Y54.399
G01 X38.455 Y54.284
G01 X38.491 Y54.248
G01 X42.941 Y54.248
G01 X43.059 Y54.334
G01 X43.222 Y54.417
G01 X43.396 Y54.473
G01 X43.577 Y54.502
G01 X45.283 Y54.502
G01 X45.464 Y54.473
G01 X45.638 Y54.417
G01 X45.801 Y54.334
G01 X45.949 Y54.226
G01 X46.078 Y54.097
G01 X46.186 Y53.949
G01 X46.269 Y53.786
G01 X46.325 Y53.612
G01 X46.354 Y53.431
G01 X46.354 Y53.249
G01 X46.325 Y53.068
G01 X46.269 Y52.894
G01 X46.186 Y52.731
G01 X46.078 Y52.583
G01 X45.949 Y52.454
G01 X45.801 Y52.346
G01 X45.638 Y52.263
G01 X45.464 Y52.207
G01 X45.283 Y52.178
G00 Z1.000
G00 X51.546 Y53.308
G01 Z-0.200
G01 X53.417 Y53.308
G01 X53.610 Y53.278
G01 X53.795 Y53.217
G01 X53.969 Y53.129
G01 X54.127 Y53.014
G01 X54.264 Y52.877
G01 X54.379 Y52.719
G01 X54.467 Y52.545
G01 X54.528 Y52.360
G01 X54.558 Y52.167
G01 X54.558 Y51.973
G01 X54.528 Y51.780
G01 X54.467 Y51.595
G01 X54.379 Y51.421
G01 X54.264 Y51.263
G01 X54.127 Y51.126
G01 X53.969 Y51.011
G01 X53.795 Y50.923
G01 X53.610 Y50.862
G01 X53.417 Y50.832
G01 X51.546 Y50.832
G01 X51.354 Y50.862
G01 X51.168 Y50.923
G01 X50.995 Y51.011
G01 X50.837 Y51.126
G01 X50.699 Y51.263
G01 X50.585 Y51.421
G01 X50.496 Y51.595
G01 X50.436 Y51.780
G01 X50.405 Y51.973
G01 X50.405 Y52.167
G01 X50.436 Y52.360
G01 X50.496 Y52.545
G01 X50.585 Y52.719
G01 X50.699 Y52.877
G01 X50.837 Y53.014
G01 X50.995 Y53.129
G01 X51.168 Y53.217
G01 X51.354 Y53.278
G01 X51.546 Y53.308
G00 Z1.000
G00 X51.546 Y48.228
G01 Z-0.200
G01 X53.417 Y48.228
G01 X53.610 Y48.198
G01 X53.795 Y48.137
G01 X53.969 Y48.049
G01 X54.127 Y47.934
G01 X54.264 Y47.797
G01 X54.379 Y47.639
G01 X54.467 Y47.465
G01 X54.528 Y47.280
G01 X54.558 Y47.087
G01 X54.558 Y46.893
G01 X54.528 Y46.700
G01 X54.467 Y46.515
G01 X54.379 Y46.341
G01 X54.264 Y46.183
G01 X54.228 Y46.147
G01 X54.228 Y44.361
G01 X54.193 Y44.185
G01 X54.125 Y44.020
G01 X54.025 Y43.871
G01 X53.899 Y43.745
G01 X51.485 Y41.331
G01 X51.359 Y41.205
G01 X51.210 Y41.105
G01 X51.045 Y41.037
G01 X50.869 Y41.002
G01 X38.456 Y41.002
G01 X38.048 Y40.594
G01 X38.048 Y40.127
G01 X37.323 Y39.402
G01 X36.297 Y39.402
G01 X35.572 Y40.127
G01 X35.572 Y41.153
G01 X36.297 Y41.878
G01 X36.764 Y41.878
G01 X37.375 Y42.489
G01 X37.501 Y42.615
G01 X37.650 Y42.715
G01 X37.815 Y42.783
G01 X37.991 Y42.818
G01 X50.404 Y42.818
G01 X52.412 Y44.826
G01 X52.412 Y45.752
G01 X51.546 Y45.752
G01 X51.354 Y45.782
G01 X51.168 Y45.843
G01 X50.995 Y45.931
G01 X50.837 Y46.046
G01 X50.699 Y46.183
G01 X50.585 Y46.341
G01 X50.496 Y46.515
G01 X50.436 Y46.700
G01 X50.405 Y46.893
G01 X50.405 Y47.087
G01 X50.436 Y47.280
G01 X50.496 Y47.465
G01 X50.585 Y47.639
G01 X50.699 Y47.797
G01 X50.837 Y47.934
G01 X50.995 Y48.049
G01 X51.168 Y48.137
G01 X51.354 Y48.198
G01 X51.546 Y48.228
G00 Z1.000
G00 X72.580 Y43.376
G01 Z-0.200
G01 X72.580 Y44.254
G01 X72.732 Y44.407
G01 X72.732 Y47.417
G01 X72.402 Y47.747
G01 X72.402 Y48.773
G01 X73.127 Y49.498
G01 X74.153 Y49.498
G01 X74.878 Y48.773
G01 X74.878 Y47.747
G01 X74.548 Y47.417
G01 X74.548 Y44.407
G01 X74.700 Y44.254
G01 X74.700 Y43.376
G01 X74.079 Y42.755
G01 X73.201 Y42.755
G01 X72.580 Y43.376
G00 Z1.000
G00 X70.230 Y20.319
G01 Z-0.200
G01 X70.230 Y17.561
G01 X70.201 Y17.343
G01 X70.145 Y17.132
G01 X70.061 Y16.930
G01 X69.952 Y16.740
G01 X69.818 Y16.567
G01 X69.663 Y16.412
G01 X69.490 Y16.278
G01 X69.300 Y16.169
G01 X69.098 Y16.085
G01 X68.887 Y16.029
G01 X68.669 Y16.000
G01 X68.451 Y16.000
G01 X68.234 Y16.029
G01 X68.022 Y16.085
G01 X67.820 Y16.169
G01 X67.630 Y16.278
G01 X67.457 Y16.412
G01 X67.302 Y16.567
G01 X67.168 Y16.740
G01 X67.059 Y16.930
G01 X66.975 Y17.132
G01 X66.919 Y17.343
G01 X66.890 Y17.561
G01 X66.890 Y20.319
G01 X66.919 Y20.537
G01 X66.975 Y20.748
G01 X67.059 Y20.950
G01 X67.168 Y21.140
G01 X67.302 Y21.313
G01 X67.457 Y21.468
G01 X67.615 Y21.590
G01 X67.457 Y21.712
G01 X67.302 Y21.867
G01 X67.236 Y21.952
G01 X59.543 Y21.952
G01 X59.335 Y21.885
G01 X59.119 Y21.850
G01 X56.919 Y21.850
G01 X56.703 Y21.885
G01 X56.495 Y21.952
G01 X56.300 Y22.052
G01 X56.122 Y22.180
G01 X55.968 Y22.335
G01 X55.839 Y22.512
G01 X55.740 Y22.707
G01 X55.672 Y22.915
G01 X55.638 Y23.132
G01 X55.638 Y23.350
G01 X55.672 Y23.567
G01 X55.740 Y23.775
G01 X55.839 Y23.970
G01 X55.968 Y24.147
G01 X56.122 Y24.302
G01 X56.300 Y24.430
G01 X56.495 Y24.530
G01 X56.703 Y24.597
G01 X56.919 Y24.632
G01 X59.119 Y24.632
G01 X59.335 Y24.597
G01 X59.543 Y24.530
G01 X59.738 Y24.430
G01 X59.916 Y24.302
G01 X60.070 Y24.147
G01 X60.199 Y23.970
G01 X60.298 Y23.775
G01 X60.301 Y23.768
G01 X66.890 Y23.768
G01 X66.890 Y25.619
G01 X66.919 Y25.837
G01 X66.975 Y26.048
G01 X67.059 Y26.250
G01 X67.168 Y26.440
G01 X67.302 Y26.613
G01 X67.457 Y26.768
G01 X67.630 Y26.902
G01 X67.820 Y27.011
G01 X68.022 Y27.095
G01 X68.234 Y27.151
G01 X68.451 Y27.180
G01 X68.669 Y27.180
G01 X68.887 Y27.151
G01 X69.098 Y27.095
G01 X69.300 Y27.011
G01 X69.490 Y26.902
G01 X69.663 Y26.768
G01 X69.818 Y26.613
G01 X69.952 Y26.440
G01 X70.061 Y26.250
G01 X70.145 Y26.048
G01 X70.201 Y25.837
G01 X70.230 Y25.619
G01 X70.230 Y22.861
G01 X70.201 Y22.643
G01 X70.145 Y22.432
G01 X70.061 Y22.230
G01 X69.952 Y22.040
G01 X69.818 Y21.867
G01 X69.663 Y21.712
G01 X69.505 Y21.590
G01 X69.663 Y21.468
G01 X69.818 Y21.313
G01 X69.952 Y21.140
G01 X70.061 Y20.950
G01 X70.145 Y20.748
G01 X70.201 Y20.537
G01 X70.230 Y20.319
G00 Z1.000
G00 X72.402 Y19.807
G01 Z-0.200
G01 X72.402 Y20.833
G01 X72.732 Y21.163
G01 X72.732 Y24.216
G01 X72.161 Y24.787
G01 X72.161 Y26.013
G01 X73.027 Y26.879
G01 X74.253 Y26.879
G01 X75.120 Y26.013
G01 X75.120 Y24.787
G01 X74.548 Y24.216
G01 X74.548 Y21.163
G01 X74.878 Y20.833
G01 X74.878 Y19.807
G01 X74.153 Y19.082
G01 X73.127 Y19.082
G01 X72.402 Y19.807
G00 Z1.000
G00 X56.878 Y11.068
G01 Z-0.200
G01 X56.768 Y11.098
G01 X56.768 Y11.068
G01 X56.878 Y11.068
G00 Z1.000
G00 X56.878 Y9.252
G01 Z-0.200
G01 X56.768 Y9.252
G01 X56.768 Y9.222
G01 X56.878 Y9.252
G00 Z1.000
G00 X54.589 Y11.030
G01 Z-0.200
G01 X51.831 Y11.030
G01 X51.614 Y11.059
G01 X51.402 Y11.115
G01 X51.200 Y11.199
G01 X51.010 Y11.308
G01 X50.837 Y11.442
G01 X50.682 Y11.597
G01 X50.548 Y11.770
G01 X50.439 Y11.960
G01 X50.355 Y12.162
G01 X50.299 Y12.373
G01 X50.270 Y12.591
G01 X50.270 Y12.809
G01 X50.299 Y13.027
G01 X50.355 Y13.238
G01 X50.439 Y13.440
G01 X50.548 Y13.630
G01 X50.682 Y13.803
G01 X50.837 Y13.958
G01 X51.010 Y14.092
G01 X51.200 Y14.201
G01 X51.402 Y14.285
G01 X51.614 Y14.341
G01 X51.831 Y14.370
G01 X54.589 Y14.370
G01 X54.807 Y14.341
G01 X54.952 Y14.302
G01 X54.952 Y15.219
G01 X54.987 Y15.395
G01 X55.055 Y15.560
G01 X55.155 Y15.709
G01 X55.281 Y15.835
G01 X56.052 Y16.606
G01 X55.982 Y16.677
G01 X55.860 Y16.835
G01 X55.738 Y16.677
G01 X55.583 Y16.522
G01 X55.410 Y16.388
G01 X55.220 Y16.279
G01 X55.018 Y16.195
G01 X54.807 Y16.139
G01 X54.589 Y16.110
G01 X51.831 Y16.110
G01 X51.614 Y16.139
G01 X51.402 Y16.195
G01 X51.200 Y16.279
G01 X51.010 Y16.388
G01 X50.837 Y16.522
G01 X50.682 Y16.677
G01 X50.548 Y16.850
G01 X50.536 Y16.872
G01 X47.011 Y16.872
G01 X46.313 Y16.174
G01 X45.087 Y16.174
G01 X44.221 Y17.040
G01 X44.221 Y18.266
G01 X45.087 Y19.132
G01 X46.313 Y19.132
G01 X46.757 Y18.688
G01 X50.536 Y18.688
G01 X50.548 Y18.710
G01 X50.682 Y18.883
G01 X50.837 Y19.038
G01 X51.010 Y19.172
G01 X51.200 Y19.281
G01 X51.402 Y19.365
G01 X51.614 Y19.421
G01 X51.831 Y19.450
G01 X54.589 Y19.450
G01 X54.807 Y19.421
G01 X55.018 Y19.365
G01 X55.220 Y19.281
G01 X55.410 Y19.172
G01 X55.583 Y19.038
G01 X55.738 Y18.883
G01 X55.860 Y18.725
G01 X55.982 Y18.883
G01 X56.137 Y19.038
G01 X56.310 Y19.172
G01 X56.500 Y19.281
G01 X56.702 Y19.365
G01 X56.914 Y19.421
G01 X57.131 Y19.450
G01 X59.889 Y19.450
G01 X60.107 Y19.421
G01 X60.318 Y19.365
G01 X60.520 Y19.281
G01 X60.710 Y19.172
G01 X60.883 Y19.038
G01 X61.038 Y18.883
G01 X61.172 Y18.710
G01 X61.281 Y18.520
G01 X61.365 Y18.318
G01 X61.421 Y18.107
G01 X61.450 Y17.889
G01 X61.450 Y17.671
G01 X61.421 Y17.453
G01 X61.365 Y17.242
G01 X61.281 Y17.040
G01 X61.172 Y16.850
G01 X61.038 Y16.677
G01 X60.883 Y16.522
G01 X60.710 Y16.388
G01 X60.520 Y16.279
G01 X60.318 Y16.195
G01 X60.107 Y16.139
G01 X59.889 Y16.110
G01 X58.124 Y16.110
G01 X56.768 Y14.754
G01 X56.768 Y14.302
G01 X56.914 Y14.341
G01 X57.131 Y14.370
G01 X59.889 Y14.370
G01 X60.107 Y14.341
G01 X60.318 Y14.285
G01 X60.520 Y14.201
G01 X60.710 Y14.092
G01 X60.883 Y13.958
G01 X61.038 Y13.803
G01 X61.172 Y13.630
G01 X61.281 Y13.440
G01 X61.365 Y13.238
G01 X61.421 Y13.027
G01 X61.450 Y12.809
G01 X61.450 Y12.591
G01 X61.421 Y12.373
G01 X61.365 Y12.162
G01 X61.281 Y11.960
G01 X61.172 Y11.770
G01 X61.038 Y11.597
G01 X60.883 Y11.442
G01 X60.710 Y11.308
G01 X60.520 Y11.199
G01 X60.318 Y11.115
G01 X60.142 Y11.068
G01 X61.229 Y11.068
G01 X61.347 Y11.154
G01 X61.510 Y11.237
G01 X61.684 Y11.293
G01 X61.865 Y11.322
G01 X63.571 Y11.322
G01 X63.752 Y11.293
G01 X63.926 Y11.237
G01 X64.089 Y11.154
G01 X64.207 Y11.068
G01 X65.776 Y11.068
G01 X65.788 Y11.090
G01 X65.922 Y11.263
G01 X66.077 Y11.418
G01 X66.250 Y11.552
G01 X66.440 Y11.661
G01 X66.642 Y11.745
G01 X66.854 Y11.801
G01 X67.071 Y11.830
G01 X69.829 Y11.830
G01 X70.047 Y11.801
G01 X70.258 Y11.745
G01 X70.460 Y11.661
G01 X70.650 Y11.552
G01 X70.823 Y11.418
G01 X70.978 Y11.263
G01 X71.100 Y11.105
G01 X71.222 Y11.263
G01 X71.377 Y11.418
G01 X71.550 Y11.552
G01 X71.740 Y11.661
G01 X71.942 Y11.745
G01 X72.154 Y11.801
G01 X72.371 Y11.830
G01 X72.732 Y11.830
G01 X72.732 Y11.857
G01 X72.402 Y12.187
G01 X72.402 Y13.213
G01 X73.127 Y13.938
G01 X74.153 Y13.938
G01 X74.878 Y13.213
G01 X74.878 Y12.187
G01 X74.548 Y11.857
G01 X74.548 Y11.830
G01 X75.129 Y11.830
G01 X75.347 Y11.801
G01 X75.558 Y11.745
G01 X75.760 Y11.661
G01 X75.950 Y11.552
G01 X76.123 Y11.418
G01 X76.278 Y11.263
G01 X76.412 Y11.090
G01 X76.521 Y10.900
G01 X76.605 Y10.698
G01 X76.661 Y10.487
G01 X76.690 Y10.269
G01 X76.690 Y10.051
G01 X76.661 Y9.833
G01 X76.605 Y9.622
G01 X76.521 Y9.420
G01 X76.412 Y9.230
G01 X76.278 Y9.057
G01 X76.123 Y8.902
G01 X75.950 Y8.768
G01 X75.760 Y8.659
G01 X75.558 Y8.575
G01 X75.347 Y8.519
G01 X75.129 Y8.490
G01 X72.371 Y8.490
