
( H:/OneDrive/25-Eagle/projects/ESP32-Machine_A_Glaçons/Pupitre.cnc )
( 27/01/2020 10:12 )

( Absolute mode )
( Unit: mm. )
( Layer: Bottom )

( X/Y home should be at bottom left corner of the board. )
( Z home should be with the tip just touching the board. )

(==============================)
( START                        )
(==============================)
(MCUSTOCK X-37.080 Y75.600 Z1.000 OTL OX0.500 OY0.500 OZ0.0)
G21
G90
G40
M03
(==============================)

(==============================)
( New tool number: T13         )
(==============================)
(MCUTOOL T13 D0.800 F3 L30 A180)
M06 T13
(==============================)
( Physical tool not changed    )
(==============================)

(==============================)
( Drilling                     )
F80.0
G00 Z1.000
G00 X5.778 Y1.214
G01 Z-1.700
G00 Z1.000
G00 X5.778 Y5.786
G01 Z-1.700
G00 Z1.000
G00 X4.580 Y9.000
G01 Z-1.700
G00 Z1.000
G00 X8.870 Y10.160
G01 Z-1.700
G00 Z1.000
G00 X5.778 Y13.714
G01 Z-1.700
G00 Z1.000
G00 X5.778 Y18.286
G01 Z-1.700
G00 Z1.000
G00 X12.382 Y18.286
G01 Z-1.700
G00 Z1.000
G00 X12.382 Y13.714
G01 Z-1.700
G00 Z1.000
G00 X19.030 Y10.160
G01 Z-1.700
G00 Z1.000
G00 X21.570 Y15.240
G01 Z-1.700
G00 Z1.000
G00 X31.730 Y15.240
G01 Z-1.700
G00 Z1.000
G00 X33.580 Y9.000
G01 Z-1.700
G00 Z1.000
G00 X32.382 Y5.786
G01 Z-1.700
G00 Z1.000
G00 X32.382 Y1.214
G01 Z-1.700
G00 Z1.000
G00 X25.778 Y1.214
G01 Z-1.700
G00 Z1.000
G00 X25.778 Y5.786
G01 Z-1.700
G00 Z1.000
G00 X12.382 Y5.786
G01 Z-1.700
G00 Z1.000
G00 X12.382 Y1.214
G01 Z-1.700
G00 Z1.000
G00 X7.600 Y27.940
G01 Z-1.700
G00 Z1.000
G00 X8.626 Y36.703
G01 Z-1.700
G00 Z1.000
G00 X17.760 Y27.940
G01 Z-1.700
G00 Z1.000
G00 X29.454 Y36.703
G01 Z-1.700
G00 Z1.000
G00 X29.454 Y59.817
G01 Z-1.700
G00 Z1.000
G00 X22.850 Y60.960
G01 Z-1.700
G00 Z1.000
G00 X20.310 Y60.960
G01 Z-1.700
G00 Z1.000
G00 X17.770 Y60.960
G01 Z-1.700
G00 Z1.000
G00 X15.230 Y60.960
G01 Z-1.700
G00 Z1.000
G00 X8.626 Y59.817
G01 Z-1.700
G00 Z1.000
G00 X4.580 Y70.000
G01 Z-1.700
G00 Z1.000
G00 X13.040 Y69.850
G01 Z-1.700
G00 Z1.000
G00 X15.040 Y69.850
G01 Z-1.700
G00 Z1.000
G00 X17.040 Y69.850
G01 Z-1.700
G00 Z1.000
G00 X19.040 Y69.850
G01 Z-1.700
G00 Z1.000
G00 X21.040 Y69.850
G01 Z-1.700
G00 Z1.000
G00 X23.040 Y69.850
G01 Z-1.700
G00 Z1.000
G00 X25.040 Y69.850
G01 Z-1.700
G00 Z1.000
G00 X33.580 Y70.000
G01 Z-1.700
G00 Z1.000

(==============================)
( New tool number: T12         )
(==============================)
(MCUTOOL T12 D0.800 F3 L30 A180)
M06 T12
(==============================)
( Physical tool not changed    )
(==============================)

(==============================)
( Milling signal contours      )
F110.0

G00 Z1.000
G00 X26.040 Y70.548
G01 Z-0.200
G01 X26.040 Y69.152
G01 X26.002 Y68.958
G01 X25.948 Y68.829
G01 X25.948 Y59.146
G01 X27.229 Y57.865
G01 X27.229 Y57.865
G01 X27.355 Y57.739
G01 X27.455 Y57.590
G01 X27.523 Y57.425
G01 X27.558 Y57.249
G01 X27.558 Y10.071
G01 X27.523 Y9.895
G01 X27.455 Y9.730
G01 X27.355 Y9.581
G01 X26.085 Y8.311
G01 X25.959 Y8.185
G01 X25.810 Y8.085
G01 X25.645 Y8.017
G01 X25.469 Y7.982
G01 X23.216 Y7.982
G01 X21.208 Y5.974
G01 X21.208 Y2.203
G01 X24.401 Y2.203
G01 X24.407 Y2.208
G01 X24.570 Y2.291
G01 X24.744 Y2.347
G01 X24.925 Y2.376
G01 X26.631 Y2.376
G01 X26.812 Y2.347
G01 X26.986 Y2.291
G01 X27.149 Y2.208
G01 X27.155 Y2.203
G01 X31.005 Y2.203
G01 X31.011 Y2.208
G01 X31.174 Y2.291
G01 X31.348 Y2.347
G01 X31.529 Y2.376
G01 X33.235 Y2.376
G01 X33.416 Y2.347
G01 X33.590 Y2.291
G01 X33.753 Y2.208
G01 X33.901 Y2.100
G01 X34.030 Y1.971
G01 X34.138 Y1.823
G01 X34.221 Y1.660
G01 X34.277 Y1.486
G01 X34.306 Y1.305
G01 X34.306 Y1.123
G01 X34.277 Y0.942
G01 X34.221 Y0.768
G01 X34.138 Y0.605
G01 X34.030 Y0.457
G01 X33.901 Y0.328
G01 X33.753 Y0.220
G01 X33.590 Y0.137
G01 X33.416 Y0.081
G01 X33.235 Y0.052
G01 X31.529 Y0.052
G01 X31.348 Y0.081
G01 X31.174 Y0.137
G01 X31.011 Y0.220
G01 X30.863 Y0.328
G01 X30.803 Y0.387
G01 X27.357 Y0.387
G01 X27.297 Y0.328
G01 X27.149 Y0.220
G01 X26.986 Y0.137
G01 X26.812 Y0.081
G01 X26.631 Y0.052
G01 X24.925 Y0.052
G01 X24.744 Y0.081
G01 X24.570 Y0.137
G01 X24.407 Y0.220
G01 X24.289 Y0.306
G01 X13.871 Y0.306
G01 X13.753 Y0.220
G01 X13.590 Y0.137
G01 X13.416 Y0.081
G01 X13.235 Y0.052
G01 X11.529 Y0.052
G01 X11.348 Y0.081
G01 X11.174 Y0.137
G01 X11.011 Y0.220
G01 X10.893 Y0.306
G01 X7.267 Y0.306
G01 X7.149 Y0.220
G01 X6.986 Y0.137
G01 X6.812 Y0.081
G01 X6.631 Y0.052
G01 X4.925 Y0.052
G01 X4.744 Y0.081
G01 X4.570 Y0.137
G01 X4.407 Y0.220
G01 X4.259 Y0.328
G01 X4.130 Y0.457
G01 X4.022 Y0.605
G01 X3.939 Y0.768
G01 X3.883 Y0.942
G01 X3.854 Y1.123
G01 X3.854 Y1.305
G01 X3.883 Y1.486
G01 X3.930 Y1.632
G01 X3.701 Y1.632
G01 X3.525 Y1.667
G01 X3.360 Y1.735
G01 X3.211 Y1.835
G01 X3.085 Y1.961
G01 X3.085 Y1.961
G01 X0.717 Y4.329
G01 X0.717 Y4.329
G01 X0.590 Y4.456
G01 X0.491 Y4.604
G01 X0.422 Y4.770
G01 X0.387 Y4.945
G01 X0.387 Y14.059
G01 X0.422 Y14.235
G01 X0.491 Y14.400
G01 X0.590 Y14.549
G01 X0.717 Y14.675
G01 X0.865 Y14.775
G01 X1.031 Y14.843
G01 X1.206 Y14.878
G01 X6.419 Y14.878
G01 X6.429 Y14.876
G01 X6.631 Y14.876
G01 X6.812 Y14.847
G01 X6.986 Y14.791
G01 X7.149 Y14.708
G01 X7.297 Y14.600
G01 X7.426 Y14.471
G01 X7.534 Y14.323
G01 X7.617 Y14.160
G01 X7.673 Y13.986
G01 X7.702 Y13.805
G01 X7.702 Y13.623
G01 X7.673 Y13.442
G01 X7.617 Y13.268
G01 X7.534 Y13.105
G01 X7.426 Y12.957
G01 X7.297 Y12.828
G01 X7.149 Y12.720
G01 X6.986 Y12.637
G01 X6.812 Y12.581
G01 X6.631 Y12.552
G01 X4.925 Y12.552
G01 X4.744 Y12.581
G01 X4.570 Y12.637
G01 X4.407 Y12.720
G01 X4.259 Y12.828
G01 X4.130 Y12.957
G01 X4.053 Y13.062
G01 X2.203 Y13.062
G01 X2.203 Y5.411
G01 X4.166 Y3.448
G01 X4.541 Y3.448
G01 X4.717 Y3.413
G01 X4.882 Y3.345
G01 X5.031 Y3.245
G01 X5.157 Y3.119
G01 X5.900 Y2.376
G01 X6.631 Y2.376
G01 X6.812 Y2.347
G01 X6.986 Y2.291
G01 X7.149 Y2.208
G01 X7.267 Y2.122
G01 X10.893 Y2.122
G01 X11.011 Y2.208
G01 X11.174 Y2.291
G01 X11.348 Y2.347
G01 X11.529 Y2.376
G01 X13.235 Y2.376
G01 X13.416 Y2.347
G01 X13.590 Y2.291
G01 X13.753 Y2.208
G01 X13.871 Y2.122
G01 X19.392 Y2.122
G01 X19.392 Y6.439
G01 X19.427 Y6.615
G01 X19.495 Y6.780
G01 X19.595 Y6.929
G01 X19.721 Y7.055
G01 X22.261 Y9.595
G01 X22.410 Y9.695
G01 X22.575 Y9.763
G01 X22.751 Y9.798
G01 X25.004 Y9.798
G01 X25.742 Y10.536
G01 X25.742 Y56.784
G01 X24.461 Y58.065
G01 X24.461 Y58.065
G01 X24.335 Y58.191
G01 X24.235 Y58.340
G01 X24.167 Y58.505
G01 X24.132 Y58.681
G01 X24.132 Y60.052
G01 X23.971 Y60.052
G01 X23.920 Y59.964
G01 X23.846 Y59.890
G01 X23.754 Y59.837
G01 X23.653 Y59.810
G01 X22.047 Y59.810
G01 X21.946 Y59.837
G01 X21.854 Y59.890
G01 X21.780 Y59.964
G01 X21.727 Y60.056
G01 X21.700 Y60.157
G01 X21.700 Y61.763
G01 X21.727 Y61.864
G01 X21.780 Y61.956
G01 X21.854 Y62.030
G01 X21.946 Y62.083
G01 X22.047 Y62.110
G01 X23.653 Y62.110
G01 X23.754 Y62.083
G01 X23.846 Y62.030
G01 X23.920 Y61.956
G01 X23.971 Y61.868
G01 X24.132 Y61.868
G01 X24.132 Y68.829
G01 X24.078 Y68.958
G01 X24.040 Y69.152
G01 X24.040 Y70.548
G01 X24.078 Y70.742
G01 X24.154 Y70.924
G01 X24.263 Y71.087
G01 X24.403 Y71.227
G01 X24.566 Y71.336
G01 X24.748 Y71.412
G01 X24.942 Y71.450
G01 X25.138 Y71.450
G01 X25.332 Y71.412
G01 X25.514 Y71.336
G01 X25.677 Y71.227
G01 X25.817 Y71.087
G01 X25.926 Y70.924
G01 X26.002 Y70.742
G01 X26.040 Y70.548
G00 Z1.000
G00 X24.040 Y70.548
G01 Z-0.200
G01 X24.040 Y69.152
G01 X24.002 Y68.958
G01 X23.926 Y68.776
G01 X23.817 Y68.613
G01 X23.677 Y68.473
G01 X23.514 Y68.364
G01 X23.332 Y68.288
G01 X23.138 Y68.250
G01 X22.942 Y68.250
G01 X22.748 Y68.288
G01 X22.566 Y68.364
G01 X22.403 Y68.473
G01 X22.263 Y68.613
G01 X22.154 Y68.776
G01 X22.078 Y68.958
G01 X22.040 Y69.152
G01 X22.040 Y70.548
G01 X22.078 Y70.742
G01 X22.132 Y70.871
G01 X22.132 Y72.324
G01 X22.167 Y72.499
G01 X22.235 Y72.665
G01 X22.335 Y72.813
G01 X23.531 Y74.010
G01 X23.680 Y74.109
G01 X23.845 Y74.178
G01 X24.021 Y74.213
G01 X30.321 Y74.213
G01 X30.496 Y74.178
G01 X30.661 Y74.109
G01 X30.810 Y74.010
G01 X30.937 Y73.883
G01 X31.165 Y73.655
G01 X31.265 Y73.506
G01 X31.333 Y73.341
G01 X31.368 Y73.165
G01 X31.368 Y65.146
G01 X34.849 Y61.665
G01 X34.975 Y61.539
G01 X35.075 Y61.390
G01 X35.143 Y61.225
G01 X35.178 Y61.049
G01 X35.178 Y16.421
G01 X35.143 Y16.245
G01 X35.075 Y16.080
G01 X34.975 Y15.931
G01 X33.705 Y14.661
G01 X33.579 Y14.535
G01 X33.430 Y14.435
G01 X33.265 Y14.367
G01 X33.089 Y14.332
G01 X32.638 Y14.332
G01 X32.638 Y12.611
G01 X32.603 Y12.435
G01 X32.535 Y12.270
G01 X32.435 Y12.121
G01 X30.098 Y9.784
G01 X30.098 Y6.694
G01 X30.893 Y6.694
G01 X31.011 Y6.780
G01 X31.174 Y6.863
G01 X31.348 Y6.919
G01 X31.529 Y6.948
G01 X33.235 Y6.948
G01 X33.416 Y6.919
G01 X33.590 Y6.863
G01 X33.753 Y6.780
G01 X33.901 Y6.672
G01 X34.030 Y6.543
G01 X34.138 Y6.395
G01 X34.221 Y6.232
G01 X34.277 Y6.058
G01 X34.306 Y5.877
G01 X34.306 Y5.695
G01 X34.277 Y5.514
G01 X34.221 Y5.340
G01 X34.138 Y5.177
G01 X34.030 Y5.029
G01 X33.901 Y4.900
G01 X33.753 Y4.792
G01 X33.590 Y4.709
G01 X33.416 Y4.653
G01 X33.235 Y4.624
G01 X31.529 Y4.624
G01 X31.348 Y4.653
G01 X31.174 Y4.709
G01 X31.011 Y4.792
G01 X30.893 Y4.878
G01 X27.267 Y4.878
G01 X27.149 Y4.792
G01 X26.986 Y4.709
G01 X26.812 Y4.653
G01 X26.631 Y4.624
G01 X24.925 Y4.624
G01 X24.744 Y4.653
G01 X24.570 Y4.709
G01 X24.407 Y4.792
G01 X24.259 Y4.900
G01 X24.130 Y5.029
G01 X24.022 Y5.177
G01 X23.939 Y5.340
G01 X23.883 Y5.514
G01 X23.854 Y5.695
G01 X23.854 Y5.877
G01 X23.883 Y6.058
G01 X23.939 Y6.232
G01 X24.022 Y6.395
G01 X24.130 Y6.543
G01 X24.259 Y6.672
G01 X24.407 Y6.780
G01 X24.570 Y6.863
G01 X24.744 Y6.919
G01 X24.925 Y6.948
G01 X26.631 Y6.948
G01 X26.812 Y6.919
G01 X26.986 Y6.863
G01 X27.149 Y6.780
G01 X27.267 Y6.694
G01 X28.282 Y6.694
G01 X28.282 Y10.249
G01 X28.317 Y10.425
G01 X28.385 Y10.590
G01 X28.485 Y10.739
G01 X28.611 Y10.865
G01 X30.822 Y13.076
G01 X30.822 Y14.397
G01 X30.492 Y14.727
G01 X30.492 Y15.753
G01 X31.217 Y16.478
G01 X32.243 Y16.478
G01 X32.573 Y16.148
G01 X32.624 Y16.148
G01 X33.362 Y16.886
G01 X33.362 Y60.584
G01 X29.755 Y64.191
G01 X29.655 Y64.340
G01 X29.587 Y64.505
G01 X29.552 Y64.681
G01 X29.552 Y72.397
G01 X24.486 Y72.397
G01 X23.948 Y71.858
G01 X23.948 Y70.871
G01 X24.002 Y70.742
G01 X24.040 Y70.548
G00 Z1.000
G00 X16.040 Y70.548
G01 Z-0.200
G01 X16.040 Y69.152
G01 X16.002 Y68.958
G01 X15.948 Y68.829
G01 X15.948 Y62.790
G01 X16.035 Y62.660
G01 X16.103 Y62.495
G01 X16.138 Y62.319
G01 X16.138 Y61.667
G01 X16.214 Y61.563
G01 X16.296 Y61.401
G01 X16.352 Y61.229
G01 X16.380 Y61.051
G01 X16.380 Y60.869
G01 X16.352 Y60.691
G01 X16.296 Y60.519
G01 X16.214 Y60.357
G01 X16.107 Y60.211
G01 X15.979 Y60.083
G01 X15.833 Y59.976
G01 X15.671 Y59.894
G01 X15.499 Y59.838
G01 X15.321 Y59.810
G01 X15.139 Y59.810
G01 X14.961 Y59.838
G01 X14.789 Y59.894
G01 X14.627 Y59.976
G01 X14.481 Y60.083
G01 X14.353 Y60.211
G01 X14.246 Y60.357
G01 X14.164 Y60.519
G01 X14.108 Y60.691
G01 X14.080 Y60.869
G01 X14.080 Y61.051
G01 X14.108 Y61.229
G01 X14.164 Y61.401
G01 X14.246 Y61.563
G01 X14.322 Y61.667
G01 X14.322 Y61.860
G01 X14.235 Y61.990
G01 X14.167 Y62.155
G01 X14.132 Y62.331
G01 X14.132 Y68.829
G01 X14.078 Y68.958
G01 X14.040 Y69.152
G01 X14.040 Y70.548
G01 X14.078 Y70.742
G01 X14.154 Y70.924
G01 X14.263 Y71.087
G01 X14.403 Y71.227
G01 X14.566 Y71.336
G01 X14.748 Y71.412
G01 X14.942 Y71.450
G01 X15.138 Y71.450
G01 X15.332 Y71.412
G01 X15.514 Y71.336
G01 X15.677 Y71.227
G01 X15.817 Y71.087
G01 X15.926 Y70.924
G01 X16.002 Y70.742
G01 X16.040 Y70.548
G00 Z1.000
G00 X16.620 Y60.869
G01 Z-0.200
G01 X16.620 Y61.051
G01 X16.648 Y61.229
G01 X16.704 Y61.401
G01 X16.786 Y61.563
G01 X16.862 Y61.667
G01 X16.862 Y63.124
G01 X16.455 Y63.531
G01 X16.328 Y63.658
G01 X16.229 Y63.806
G01 X16.160 Y63.972
G01 X16.125 Y64.147
G01 X16.125 Y65.403
G01 X16.132 Y65.436
G01 X16.132 Y68.829
G01 X16.078 Y68.958
G01 X16.040 Y69.152
G01 X16.040 Y70.548
G01 X16.078 Y70.742
G01 X16.154 Y70.924
G01 X16.263 Y71.087
G01 X16.403 Y71.227
G01 X16.566 Y71.336
G01 X16.748 Y71.412
G01 X16.942 Y71.450
G01 X17.138 Y71.450
G01 X17.332 Y71.412
G01 X17.514 Y71.336
G01 X17.677 Y71.227
G01 X17.817 Y71.087
G01 X17.926 Y70.924
G01 X18.002 Y70.742
G01 X18.040 Y70.548
G01 X18.040 Y69.152
G01 X18.002 Y68.958
G01 X17.948 Y68.829
G01 X17.948 Y65.231
G01 X17.941 Y65.197
G01 X17.941 Y64.613
G01 X18.475 Y64.079
G01 X18.575 Y63.930
G01 X18.643 Y63.765
G01 X18.678 Y63.589
G01 X18.678 Y61.667
G01 X18.754 Y61.563
G01 X18.836 Y61.401
G01 X18.892 Y61.229
G01 X18.920 Y61.051
G01 X18.920 Y60.869
G01 X18.892 Y60.691
G01 X18.836 Y60.519
G01 X18.754 Y60.357
G01 X18.647 Y60.211
G01 X18.519 Y60.083
G01 X18.373 Y59.976
G01 X18.211 Y59.894
G01 X18.039 Y59.838
G01 X17.861 Y59.810
G01 X17.679 Y59.810
G01 X17.501 Y59.838
G01 X17.329 Y59.894
G01 X17.167 Y59.976
G01 X17.021 Y60.083
G01 X16.893 Y60.211
G01 X16.786 Y60.357
G01 X16.704 Y60.519
G01 X16.648 Y60.691
G01 X16.620 Y60.869
G00 Z1.000
G00 X19.160 Y60.869
G01 Z-0.200
G01 X19.160 Y61.051
G01 X19.188 Y61.229
G01 X19.244 Y61.401
G01 X19.326 Y61.563
G01 X19.402 Y61.667
G01 X19.402 Y65.654
G01 X18.325 Y66.731
G01 X18.225 Y66.880
G01 X18.157 Y67.045
G01 X18.122 Y67.221
G01 X18.122 Y68.853
G01 X18.078 Y68.958
G01 X18.040 Y69.152
G01 X18.040 Y70.548
G01 X18.078 Y70.742
G01 X18.154 Y70.924
G01 X18.263 Y71.087
G01 X18.403 Y71.227
G01 X18.566 Y71.336
G01 X18.748 Y71.412
G01 X18.942 Y71.450
G01 X19.138 Y71.450
G01 X19.332 Y71.412
G01 X19.514 Y71.336
G01 X19.677 Y71.227
G01 X19.817 Y71.087
G01 X19.926 Y70.924
G01 X20.002 Y70.742
G01 X20.040 Y70.548
G01 X20.040 Y69.152
G01 X20.002 Y68.958
G01 X19.938 Y68.805
G01 X19.938 Y67.686
G01 X21.015 Y66.609
G01 X21.115 Y66.460
G01 X21.183 Y66.295
G01 X21.218 Y66.119
G01 X21.218 Y61.667
G01 X21.294 Y61.563
G01 X21.376 Y61.401
G01 X21.432 Y61.229
G01 X21.460 Y61.051
G01 X21.460 Y60.869
G01 X21.432 Y60.691
G01 X21.376 Y60.519
G01 X21.294 Y60.357
G01 X21.218 Y60.253
G01 X21.218 Y30.401
G01 X21.208 Y30.350
G01 X21.208 Y29.586
G01 X22.129 Y28.665
G01 X22.159 Y28.645
G01 X22.285 Y28.519
G01 X22.385 Y28.370
G01 X22.453 Y28.205
G01 X22.488 Y28.029
G01 X22.488 Y16.073
G01 X22.808 Y15.753
G01 X22.808 Y14.727
G01 X22.083 Y14.002
G01 X21.616 Y14.002
G01 X19.938 Y12.324
G01 X19.938 Y11.003
G01 X20.268 Y10.673
G01 X20.268 Y9.647
G01 X19.543 Y8.922
G01 X18.517 Y8.922
G01 X17.792 Y9.647
G01 X17.792 Y10.673
G01 X18.122 Y11.003
G01 X18.122 Y12.789
G01 X18.157 Y12.965
G01 X18.225 Y13.130
G01 X18.325 Y13.279
G01 X18.451 Y13.405
G01 X20.332 Y15.286
G01 X20.332 Y15.753
G01 X20.672 Y16.093
G01 X20.672 Y27.032
G01 X18.603 Y27.032
G01 X18.273 Y26.702
G01 X17.247 Y26.702
G01 X16.522 Y27.427
G01 X16.522 Y28.453
G01 X17.247 Y29.178
G01 X18.273 Y29.178
G01 X18.603 Y28.848
G01 X19.467 Y28.848
G01 X19.427 Y28.945
G01 X19.392 Y29.121
G01 X19.392 Y30.569
G01 X19.402 Y30.620
G01 X19.402 Y60.253
G01 X19.326 Y60.357
G01 X19.244 Y60.519
G01 X19.188 Y60.691
G01 X19.160 Y60.869
G00 Z1.000
G00 X6.362 Y27.427
G01 Z-0.200
G01 X6.362 Y28.453
G01 X7.087 Y29.178
G01 X8.113 Y29.178
G01 X8.443 Y28.848
G01 X11.772 Y28.848
G01 X11.772 Y69.579
G01 X11.807 Y69.755
G01 X11.875 Y69.920
G01 X11.975 Y70.069
G01 X12.040 Y70.134
G01 X12.040 Y70.548
G01 X12.078 Y70.742
G01 X12.154 Y70.924
G01 X12.263 Y71.087
G01 X12.403 Y71.227
G01 X12.566 Y71.336
G01 X12.748 Y71.412
G01 X12.942 Y71.450
G01 X13.138 Y71.450
G01 X13.332 Y71.412
G01 X13.514 Y71.336
G01 X13.677 Y71.227
G01 X13.817 Y71.087
G01 X13.926 Y70.924
G01 X14.002 Y70.742
G01 X14.040 Y70.548
G01 X14.040 Y69.152
G01 X14.002 Y68.958
G01 X13.926 Y68.776
G01 X13.817 Y68.613
G01 X13.677 Y68.473
G01 X13.588 Y68.413
G01 X13.588 Y19.364
G01 X13.590 Y19.363
G01 X13.753 Y19.280
G01 X13.901 Y19.172
G01 X14.030 Y19.043
G01 X14.138 Y18.895
G01 X14.221 Y18.732
G01 X14.277 Y18.558
G01 X14.306 Y18.377
G01 X14.306 Y18.195
G01 X14.277 Y18.014
G01 X14.221 Y17.840
G01 X14.138 Y17.677
G01 X14.030 Y17.529
G01 X13.901 Y17.400
G01 X13.753 Y17.292
G01 X13.590 Y17.209
G01 X13.416 Y17.153
G01 X13.235 Y17.124
G01 X11.529 Y17.124
G01 X11.348 Y17.153
G01 X11.174 Y17.209
G01 X11.011 Y17.292
G01 X10.863 Y17.400
G01 X10.734 Y17.529
G01 X10.626 Y17.677
G01 X10.543 Y17.840
G01 X10.487 Y18.014
G01 X10.458 Y18.195
G01 X10.458 Y18.377
G01 X10.487 Y18.558
G01 X10.543 Y18.732
G01 X10.626 Y18.895
G01 X10.734 Y19.043
G01 X10.863 Y19.172
G01 X11.011 Y19.280
G01 X11.174 Y19.363
G01 X11.348 Y19.419
G01 X11.529 Y19.448
G01 X11.772 Y19.448
G01 X11.772 Y27.032
G01 X8.443 Y27.032
G01 X8.113 Y26.702
G01 X7.087 Y26.702
G01 X6.362 Y27.427
G00 Z1.000
G00 X4.925 Y19.448
G01 Z-0.200
G01 X6.631 Y19.448
G01 X6.812 Y19.419
G01 X6.986 Y19.363
G01 X7.149 Y19.280
G01 X7.297 Y19.172
G01 X7.426 Y19.043
G01 X7.534 Y18.895
G01 X7.617 Y18.732
G01 X7.673 Y18.558
G01 X7.702 Y18.377
G01 X7.702 Y18.195
G01 X7.673 Y18.014
G01 X7.617 Y17.840
G01 X7.534 Y17.677
G01 X7.426 Y17.529
G01 X7.297 Y17.400
G01 X7.149 Y17.292
G01 X6.986 Y17.209
G01 X6.812 Y17.153
G01 X6.631 Y17.124
G01 X4.925 Y17.124
G01 X4.744 Y17.153
G01 X4.570 Y17.209
G01 X4.407 Y17.292
G01 X4.259 Y17.400
G01 X4.130 Y17.529
G01 X4.022 Y17.677
G01 X3.939 Y17.840
G01 X3.883 Y18.014
G01 X3.854 Y18.195
G01 X3.854 Y18.377
G01 X3.883 Y18.558
G01 X3.939 Y18.732
G01 X4.022 Y18.895
G01 X4.130 Y19.043
G01 X4.259 Y19.172
G01 X4.407 Y19.280
G01 X4.570 Y19.363
G01 X4.744 Y19.419
G01 X4.925 Y19.448
G00 Z1.000
G00 X11.529 Y14.876
G01 Z-0.200
G01 X13.235 Y14.876
G01 X13.416 Y14.847
G01 X13.590 Y14.791
G01 X13.753 Y14.708
G01 X13.901 Y14.600
G01 X14.030 Y14.471
G01 X14.138 Y14.323
G01 X14.221 Y14.160
G01 X14.277 Y13.986
G01 X14.306 Y13.805
G01 X14.306 Y13.623
G01 X14.277 Y13.442
G01 X14.221 Y13.268
G01 X14.138 Y13.105
G01 X14.030 Y12.957
G01 X13.901 Y12.828
G01 X13.753 Y12.720
G01 X13.590 Y12.637
G01 X13.416 Y12.581
G01 X13.235 Y12.552
G01 X11.529 Y12.552
G01 X11.348 Y12.581
G01 X11.174 Y12.637
G01 X11.011 Y12.720
G01 X10.863 Y12.828
G01 X10.734 Y12.957
G01 X10.626 Y13.105
G01 X10.543 Y13.268
G01 X10.487 Y13.442
G01 X10.458 Y13.623
G01 X10.458 Y13.805
G01 X10.487 Y13.986
G01 X10.543 Y14.160
G01 X10.626 Y14.323
G01 X10.734 Y14.471
G01 X10.863 Y14.600
G01 X11.011 Y14.708
G01 X11.174 Y14.791
G01 X11.348 Y14.847
G01 X11.529 Y14.876
G00 Z1.000
G00 X4.925 Y6.948
G01 Z-0.200
G01 X6.631 Y6.948
G01 X6.812 Y6.919
G01 X6.986 Y6.863
G01 X7.149 Y6.780
G01 X7.267 Y6.694
G01 X7.962 Y6.694
G01 X7.962 Y9.317
G01 X7.632 Y9.647
G01 X7.632 Y10.673
G01 X7.962 Y11.003
G01 X7.962 Y19.944
G01 X4.355 Y23.551
G01 X4.255 Y23.700
G01 X4.187 Y23.865
G01 X4.152 Y24.041
G01 X4.152 Y61.049
G01 X4.187 Y61.225
G01 X4.255 Y61.390
G01 X4.355 Y61.539
G01 X4.481 Y61.665
G01 X4.481 Y61.665
G01 X9.232 Y66.416
G01 X9.232 Y72.479
G01 X9.267 Y72.655
G01 X9.335 Y72.820
G01 X9.435 Y72.969
G01 X9.561 Y73.095
G01 X9.561 Y73.095
G01 X10.349 Y73.883
G01 X10.476 Y74.010
G01 X10.625 Y74.109
G01 X10.790 Y74.178
G01 X10.965 Y74.213
G01 X20.389 Y74.213
G01 X20.565 Y74.178
G01 X20.730 Y74.109
G01 X20.879 Y74.010
G01 X21.005 Y73.883
G01 X21.005 Y73.883
G01 X21.745 Y73.143
G01 X21.845 Y72.995
G01 X21.913 Y72.829
G01 X21.948 Y72.654
G01 X21.948 Y70.871
G01 X22.002 Y70.742
G01 X22.040 Y70.548
G01 X22.040 Y69.152
G01 X22.002 Y68.958
G01 X21.926 Y68.776
G01 X21.817 Y68.613
G01 X21.677 Y68.473
G01 X21.514 Y68.364
G01 X21.332 Y68.288
G01 X21.138 Y68.250
G01 X20.942 Y68.250
G01 X20.748 Y68.288
G01 X20.566 Y68.364
G01 X20.403 Y68.473
G01 X20.263 Y68.613
G01 X20.154 Y68.776
G01 X20.078 Y68.958
G01 X20.040 Y69.152
G01 X20.040 Y70.548
G01 X20.078 Y70.742
G01 X20.132 Y70.871
G01 X20.132 Y72.188
G01 X19.924 Y72.397
G01 X11.431 Y72.397
G01 X11.048 Y72.014
G01 X11.048 Y65.951
G01 X11.013 Y65.775
G01 X10.945 Y65.610
G01 X10.845 Y65.461
G01 X10.719 Y65.335
G01 X10.719 Y65.335
G01 X5.968 Y60.584
G01 X5.968 Y24.506
G01 X9.575 Y20.899
G01 X9.675 Y20.750
G01 X9.743 Y20.585
G01 X9.778 Y20.409
G01 X9.778 Y11.003
G01 X10.108 Y10.673
G01 X10.108 Y9.647
G01 X9.778 Y9.317
G01 X9.778 Y6.694
G01 X10.893 Y6.694
G01 X11.011 Y6.780
G01 X11.174 Y6.863
G01 X11.348 Y6.919
G01 X11.529 Y6.948
G01 X13.235 Y6.948
G01 X13.416 Y6.919
G01 X13.590 Y6.863
G01 X13.753 Y6.780
G01 X13.901 Y6.672
G01 X14.030 Y6.543
G01 X14.138 Y6.395
G01 X14.221 Y6.232
G01 X14.277 Y6.058
G01 X14.306 Y5.877
G01 X14.306 Y5.695
G01 X14.277 Y5.514
G01 X14.221 Y5.340
G01 X14.138 Y5.177
G01 X14.030 Y5.029
G01 X13.901 Y4.900
G01 X13.753 Y4.792
G01 X13.590 Y4.709
G01 X13.416 Y4.653
G01 X13.235 Y4.624
G01 X11.529 Y4.624
G01 X11.348 Y4.653
G01 X11.174 Y4.709
G01 X11.011 Y4.792
G01 X10.893 Y4.878
G01 X7.267 Y4.878
G01 X7.149 Y4.792
G01 X6.986 Y4.709
G01 X6.812 Y4.653
G01 X6.631 Y4.624
G01 X4.925 Y4.624
G01 X4.744 Y4.653
G01 X4.570 Y4.709
G01 X4.407 Y4.792
G01 X4.259 Y4.900
G01 X4.130 Y5.029
G01 X4.022 Y5.177
G01 X3.939 Y5.340
G01 X3.883 Y5.514
G01 X3.854 Y5.695
G01 X3.854 Y5.877
G01 X3.883 Y6.058
G01 X3.939 Y6.232
G01 X4.022 Y6.395
G01 X4.130 Y6.543
G01 X4.259 Y6.672
G01 X4.407 Y6.780
G01 X4.570 Y6.863
G01 X4.744 Y6.919
G01 X4.925 Y6.948

(==============================)
( New tool number: T15         )
(==============================)
(MCUTOOL T15 D0.800 F3 L30 A180)
M06 T15
(==============================)
( Physical tool not changed    )
(==============================)

(==============================)
( Cutting                      )
F70.0
G00 Z1.000
G00 X0.000 Y0.000
G01 Z-0.750
G01 X0.000 Y74.600
G00 Z1.000
G01 Z-0.750
G01 X38.080 Y74.600
G00 Z1.000
G01 Z-0.750
G01 X38.080 Y0.000
G00 Z1.000
G01 Z-0.750
G01 X0.000 Y0.000

(==============================)
( New tool number: T15         )
(==============================)
(MCUTOOL T15 D0.800 F3 L30 A180)
M06 T15
(==============================)
( Physical tool not changed    )
(==============================)

(==============================)
( Cutting                      )
G00 Z1.000
G01 Z-1.500
G01 X0.000 Y74.600
G00 Z1.000
G01 Z-1.500
G01 X38.080 Y74.600
G00 Z1.000
G01 Z-1.500
G01 X38.080 Y0.000
G00 Z1.000
G01 Z-1.500
G01 X0.000 Y0.000

(==============================)
( END OF PROGRAM               )
M05
G00 Z1.000
G00 X0.000 Y0.000 z5.000
M30
M02
(==============================)

(======= STATISTICS =======)

( Total Rapid 467 mm
( Total Move 1514 mm

( Total estimated time: 
( 21  min.
( 39  sec.
